; generated by PrusaSlicer 2.0.0 on 2020-01-18 at 18:59:55

; 

; external perimeters extrusion width = 0.45mm
; perimeters extrusion width = 0.45mm
; infill extrusion width = 0.45mm
; solid infill extrusion width = 0.45mm
; top infill extrusion width = 0.40mm
; first layer extrusion width = 0.42mm

M127
G28 ; home all axes
G1 Z5 F5000 ; lift nozzle
M109 T0 S200
M140 S60 ;set bed temp
M190 S60
; Filament gcode
M73 P0
G1 Z0.200 F7800.000
G1 E-4.00000 F2400.00000
M103 ; extruder off
G1 X-93.483 Y70.440 F7800.000
M101 ; extruder on
G1 E0.00000 F2400.00000
G1 F1800
G1 X-93.208 Y72.031 E0.05062
G1 X-93.279 Y73.629 E0.10077
G1 X-93.712 Y75.237 E0.15300
G1 X-94.587 Y76.898 E0.21185
G1 X-96.046 Y78.947 E0.29074
G1 X-97.635 Y80.704 E0.36499
G1 X-99.378 Y82.247 E0.43798
G1 X-100.710 Y83.217 E0.48965
G1 X-102.321 Y84.195 E0.54875
G1 X-103.794 Y84.930 E0.60036
G1 X-105.465 Y85.598 E0.65678
G1 X-107.220 Y86.129 E0.71427
G1 X-108.852 Y86.479 E0.76660
G1 X-110.495 Y86.698 E0.81857
G1 X-112.335 Y86.788 E0.87634
G1 X-137.742 Y85.263 E1.67437
G1 X-139.191 Y84.920 E1.72107
G1 X-140.597 Y84.288 E1.76941
G1 X-141.799 Y83.439 E1.81554
G1 X-142.843 Y82.352 E1.86282
G1 X-143.463 Y81.445 E1.89726
G1 X-143.944 Y80.474 E1.93124
G1 X-144.299 Y79.416 E1.96621
G1 X-144.503 Y78.320 E2.00116
G1 X-144.561 Y77.370 E2.03101
G1 X-144.547 Y67.168 E2.35088
G1 X-144.285 Y65.532 E2.40284
G1 X-143.678 Y63.950 E2.45598
G1 X-142.772 Y62.560 E2.50799
G1 X-141.598 Y61.394 E2.55988
G1 X-140.692 Y60.768 E2.59439
G1 X-139.695 Y60.268 E2.62938
G1 X-138.641 Y59.915 E2.66423
G1 X-137.524 Y59.709 E2.69984
G1 X-112.485 Y58.212 E3.48632
G1 X-109.733 Y58.387 E3.57278
G1 X-106.996 Y58.930 E3.66027
G1 X-104.351 Y59.829 E3.74787
G1 X-101.837 Y61.078 E3.83589
G1 X-99.507 Y62.653 E3.92404
G1 X-97.407 Y64.525 E4.01224
G1 X-95.620 Y66.599 E4.09810
G1 X-94.122 Y68.885 E4.18378
G1 X-93.506 Y70.385 E4.23461
G1 E0.23461 F2400.00000
M103 ; extruder off
G1 X-110.386 Y77.300 F7800.000
M101 ; extruder on
G1 E4.23461 F2400.00000
G1 F1800
G1 X-110.277 Y77.142 E4.24065
G1 X-110.111 Y77.034 E4.24687
G1 X-109.633 Y76.896 E4.26243
G1 X-109.474 Y76.825 E4.26791
G1 X-109.265 Y76.647 E4.27652
G1 X-109.127 Y76.418 E4.28491
G1 X-108.909 Y75.846 E4.30411
G1 X-108.722 Y75.458 E4.31761
G1 X-108.661 Y75.227 E4.32509
G1 X-108.705 Y75.005 E4.33219
G1 X-108.978 Y74.381 E4.35355
G1 X-109.572 Y72.776 E4.40719
G1 X-109.872 Y72.047 E4.43192
G1 X-109.963 Y71.729 E4.44230
G1 X-109.995 Y71.369 E4.45362
G1 X-109.940 Y71.100 E4.46224
G1 X-109.861 Y70.965 E4.46713
G1 X-109.709 Y70.838 E4.47336
G1 X-109.449 Y70.771 E4.48177
G1 X-109.214 Y70.791 E4.48916
G1 X-109.016 Y70.858 E4.49572
G1 X-108.824 Y70.983 E4.50291
G1 X-108.689 Y71.149 E4.50961
G1 X-108.596 Y71.358 E4.51679
G1 X-108.410 Y72.005 E4.53789
G1 X-108.022 Y72.999 E4.57135
G1 X-107.861 Y72.993 E4.57640
G1 X-107.371 Y71.536 E4.62459
G1 X-107.235 Y71.246 E4.63461
G1 X-107.083 Y71.024 E4.64306
G1 X-106.923 Y70.871 E4.65001
G1 X-106.744 Y70.785 E4.65622
G1 X-106.554 Y70.774 E4.66221
G1 X-106.365 Y70.842 E4.66850
G1 X-106.193 Y70.976 E4.67533
G1 X-106.058 Y71.156 E4.68239
G1 X-105.974 Y71.372 E4.68968
G1 X-105.958 Y71.576 E4.69607
G1 X-106.026 Y71.859 E4.70521
G1 X-106.312 Y72.512 E4.72757
G1 X-106.526 Y73.160 E4.74897
G1 X-107.478 Y75.819 E4.83752
G1 X-107.859 Y76.801 E4.87055
G1 X-108.129 Y77.397 E4.89106
G1 X-108.246 Y77.594 E4.89823
G1 X-108.421 Y77.818 E4.90715
G1 X-108.701 Y78.044 E4.91843
G1 X-108.970 Y78.177 E4.92786
G1 X-109.191 Y78.253 E4.93517
G1 X-109.485 Y78.320 E4.94464
G1 X-109.730 Y78.331 E4.95231
G1 X-109.940 Y78.288 E4.95905
G1 X-110.088 Y78.215 E4.96421
G1 X-110.276 Y78.019 E4.97273
G1 X-110.378 Y77.805 E4.98018
G1 X-110.417 Y77.646 E4.98529
G1 X-110.426 Y77.497 E4.98998
G1 X-110.398 Y77.359 E4.99439
G1 X-110.497 Y77.143 F7800.000
G1 E0.99439 F2400.00000
M103 ; extruder off
G1 X-114.106 Y75.272 F7800.000
M101 ; extruder on
G1 E4.99439 F2400.00000
G1 F1800
G1 X-114.111 Y75.125 E4.99900
G1 X-114.070 Y74.917 E5.00563
G1 X-114.004 Y74.752 E5.01121
G1 X-113.477 Y73.827 E5.04460
G1 X-113.150 Y73.366 E5.06232
G1 X-113.112 Y73.256 E5.06597
G1 X-113.149 Y73.167 E5.06900
G1 X-113.382 Y72.815 E5.08223
G1 X-113.941 Y71.809 E5.11833
G1 X-114.025 Y71.561 E5.12652
G1 X-114.040 Y71.282 E5.13527
G1 X-113.935 Y71.040 E5.14355
G1 X-113.717 Y70.858 E5.15247
G1 X-113.440 Y70.772 E5.16155
G1 X-113.284 Y70.773 E5.16646
G1 X-113.099 Y70.831 E5.17252
G1 X-112.971 Y70.911 E5.17726
G1 X-112.806 Y71.071 E5.18445
G1 X-112.580 Y71.399 E5.19695
G1 X-112.309 Y71.926 E5.21552
G1 X-112.133 Y71.527 E5.22920
G1 X-111.984 Y71.257 E5.23885
G1 X-111.800 Y71.035 E5.24790
G1 X-111.613 Y70.880 E5.25549
G1 X-111.364 Y70.772 E5.26403
G1 X-111.101 Y70.794 E5.27228
G1 X-110.866 Y70.944 E5.28103
G1 X-110.711 Y71.158 E5.28930
G1 X-110.646 Y71.432 E5.29813
G1 X-110.722 Y71.733 E5.30786
G1 X-111.409 Y72.896 E5.35021
G1 X-111.482 Y73.068 E5.35609
G1 X-111.506 Y73.198 E5.36023
G1 X-111.496 Y73.317 E5.36397
G1 X-111.449 Y73.442 E5.36816
G1 X-110.766 Y74.579 E5.40973
G1 X-110.631 Y74.879 E5.42006
G1 X-110.594 Y75.130 E5.42802
G1 X-110.623 Y75.364 E5.43539
G1 X-110.723 Y75.565 E5.44244
G1 X-110.929 Y75.731 E5.45073
G1 X-111.146 Y75.801 E5.45788
G1 X-111.374 Y75.807 E5.46505
G1 X-111.580 Y75.744 E5.47179
G1 X-111.747 Y75.619 E5.47834
G1 X-111.935 Y75.359 E5.48840
G1 X-112.395 Y74.529 E5.51814
G1 X-112.564 Y74.901 E5.53094
G1 X-112.756 Y75.228 E5.54283
G1 X-112.962 Y75.519 E5.55401
G1 X-113.126 Y75.682 E5.56127
G1 X-113.370 Y75.795 E5.56971
G1 X-113.644 Y75.768 E5.57832
G1 X-113.896 Y75.629 E5.58733
G1 X-114.042 Y75.457 E5.59442
G1 X-114.087 Y75.328 E5.59868
G1 X-114.246 Y75.225 F7800.000
G1 X-114.564 Y75.168
M101 ; extruder on
G1 F1800
G1 X-114.580 Y75.238 E5.60093
G1 X-114.713 Y75.519 E5.61067
G1 X-114.847 Y75.692 E5.61755
G1 X-115.011 Y75.838 E5.62443
G1 X-115.283 Y75.990 E5.63419
G1 X-115.493 Y76.052 E5.64107
G1 X-115.705 Y76.075 E5.64776
G1 X-115.919 Y76.060 E5.65447
G1 X-116.126 Y76.009 E5.66115
G1 X-116.326 Y75.920 E5.66804
G1 X-116.576 Y75.733 E5.67781
G1 X-116.718 Y75.567 E5.68466
G1 X-116.828 Y75.379 E5.69150
G1 X-116.924 Y75.083 E5.70127
G1 X-116.942 Y74.864 E5.70815
G1 X-116.924 Y74.646 E5.71499
G1 X-116.828 Y74.350 E5.72476
G1 X-116.718 Y74.162 E5.73160
G1 X-116.579 Y73.999 E5.73831
G1 X-116.413 Y73.864 E5.74501
G1 X-116.227 Y73.758 E5.75174
G1 X-116.019 Y73.688 E5.75860
G1 X-115.742 Y73.655 E5.76734
G1 X-115.495 Y73.677 E5.77513
G1 X-115.287 Y73.738 E5.78194
G1 X-115.096 Y73.835 E5.78866
G1 X-114.925 Y73.962 E5.79532
G1 X-114.778 Y74.118 E5.80205
G1 X-114.662 Y74.298 E5.80877
G1 X-114.577 Y74.500 E5.81562
G1 X-114.522 Y74.806 E5.82538
G1 X-114.551 Y75.110 E5.83494
G1 X-114.508 Y75.212 F7800.000
G1 E1.83494 F2400.00000
M103 ; extruder off
G1 X-121.254 Y75.560 F7800.000
M101 ; extruder on
G1 E5.83494 F2400.00000
G1 F1800
G1 X-121.399 Y75.442 E5.84078
G1 X-121.507 Y75.265 E5.84729
G1 X-121.574 Y75.039 E5.85467
G1 X-121.598 Y74.767 E5.86324
G1 X-121.580 Y74.165 E5.88213
G1 X-121.576 Y70.550 E5.99547
G1 X-121.618 Y69.925 E6.01513
G1 X-121.543 Y69.651 E6.02402
G1 X-121.350 Y69.464 E6.03245
G1 X-121.069 Y69.355 E6.04190
G1 X-120.772 Y69.324 E6.05126
G1 X-119.163 Y69.360 E6.10171
G1 X-118.711 Y69.419 E6.11601
G1 X-118.241 Y69.542 E6.13124
G1 X-117.864 Y69.726 E6.14442
G1 X-117.522 Y69.999 E6.15813
G1 X-117.252 Y70.315 E6.17115
G1 X-117.003 Y70.739 E6.18657
G1 X-116.859 Y71.104 E6.19887
G1 X-116.784 Y71.373 E6.20764
G1 X-116.689 Y71.973 E6.22669
G1 X-116.669 Y72.480 E6.24258
G1 X-116.683 Y72.834 E6.25370
G1 X-116.775 Y73.469 E6.27380
G1 X-116.944 Y74.011 E6.29161
G1 X-117.059 Y74.259 E6.30018
G1 X-117.258 Y74.580 E6.31201
G1 X-117.490 Y74.855 E6.32332
G1 X-117.673 Y75.023 E6.33109
G1 X-117.863 Y75.167 E6.33857
G1 X-118.165 Y75.337 E6.34942
G1 X-118.591 Y75.481 E6.36352
G1 X-119.128 Y75.567 E6.38059
G1 X-119.650 Y75.594 E6.39697
G1 X-120.468 Y75.586 E6.42261
G1 X-120.912 Y75.628 E6.43661
G1 X-121.118 Y75.611 E6.44308
G1 X-121.198 Y75.581 E6.44577
G1 X-121.415 Y75.653 F7800.000
G1 E2.44577 F2400.00000
M103 ; extruder off
G1 X-125.693 Y70.916 F7800.000
M101 ; extruder on
G1 E6.44577 F2400.00000
G1 F1800
G1 X-125.883 Y70.934 E6.45174
G1 X-126.077 Y70.871 E6.45813
G1 X-126.275 Y70.716 E6.46602
G1 X-126.416 Y70.519 E6.47360
G1 X-126.498 Y70.296 E6.48106
G1 X-126.506 Y70.076 E6.48797
G1 X-126.409 Y69.829 E6.49629
G1 X-126.257 Y69.649 E6.50368
G1 X-126.047 Y69.491 E6.51192
G1 X-125.770 Y69.347 E6.52170
G1 X-125.461 Y69.243 E6.53193
G1 X-125.116 Y69.181 E6.54291
G1 X-124.512 Y69.166 E6.56184
G1 X-124.231 Y69.196 E6.57071
G1 X-123.905 Y69.267 E6.58117
G1 X-123.700 Y69.340 E6.58799
G1 X-123.439 Y69.480 E6.59730
G1 X-123.279 Y69.603 E6.60361
G1 X-123.084 Y69.814 E6.61261
G1 X-122.937 Y70.055 E6.62149
G1 X-122.839 Y70.389 E6.63237
G1 X-122.821 Y70.685 E6.64169
G1 X-122.858 Y71.177 E6.65714
G1 X-122.946 Y71.502 E6.66772
G1 X-123.071 Y71.705 E6.67521
G1 X-123.246 Y71.865 E6.68264
G1 X-123.503 Y72.010 E6.69187
G1 X-123.270 Y72.108 E6.69978
G1 X-123.134 Y72.198 E6.70488
G1 X-122.979 Y72.360 E6.71192
G1 X-122.858 Y72.566 E6.71941
G1 X-122.747 Y72.877 E6.72975
G1 X-122.628 Y73.309 E6.74381
G1 X-122.581 Y73.627 E6.75390
G1 X-122.602 Y74.033 E6.76665
G1 X-122.719 Y74.454 E6.78036
G1 X-122.872 Y74.771 E6.79138
G1 X-123.137 Y75.130 E6.80537
G1 X-123.465 Y75.411 E6.81890
G1 X-123.849 Y75.614 E6.83254
G1 X-124.266 Y75.728 E6.84611
G1 X-124.641 Y75.765 E6.85791
G1 X-125.051 Y75.759 E6.87078
G1 X-125.298 Y75.730 E6.87856
G1 X-125.616 Y75.659 E6.88879
G1 X-125.904 Y75.550 E6.89844
G1 X-126.127 Y75.414 E6.90662
G1 X-126.314 Y75.232 E6.91479
G1 X-126.455 Y74.972 E6.92409
G1 X-126.509 Y74.723 E6.93206
G1 X-126.476 Y74.418 E6.94170
G1 X-126.329 Y74.174 E6.95063
G1 X-126.094 Y74.026 E6.95933
G1 X-125.793 Y73.973 E6.96892
G1 X-125.546 Y74.001 E6.97672
G1 X-125.344 Y74.075 E6.98345
G1 X-124.914 Y74.384 E7.00005
G1 X-124.810 Y74.438 E7.00375
G1 X-124.672 Y74.457 E7.00812
G1 X-124.552 Y74.437 E7.01193
G1 X-124.358 Y74.343 E7.01869
G1 X-124.246 Y74.245 E7.02337
G1 X-124.160 Y74.121 E7.02808
G1 X-124.106 Y73.980 E7.03283
G1 X-124.085 Y73.768 E7.03950
G1 X-124.130 Y73.560 E7.04617
G1 X-124.250 Y73.335 E7.05418
G1 X-124.387 Y73.177 E7.06072
G1 X-124.553 Y73.046 E7.06737
G1 X-124.741 Y72.951 E7.07396
G1 X-124.875 Y72.907 E7.07839
G1 X-125.369 Y72.816 E7.09415
G1 X-125.571 Y72.739 E7.10090
G1 X-125.751 Y72.568 E7.10868
G1 X-125.821 Y72.369 E7.11532
G1 X-125.825 Y72.146 E7.12230
G1 X-125.768 Y71.917 E7.12970
G1 X-125.692 Y71.764 E7.13506
G1 X-125.544 Y71.593 E7.14213
G1 X-125.302 Y71.474 E7.15061
G1 X-124.847 Y71.397 E7.16507
G1 X-124.697 Y71.346 E7.17003
G1 X-124.573 Y71.267 E7.17465
G1 X-124.472 Y71.160 E7.17927
G1 X-124.406 Y71.044 E7.18345
G1 X-124.381 Y70.936 E7.18692
G1 X-124.396 Y70.773 E7.19206
G1 X-124.441 Y70.665 E7.19573
G1 X-124.512 Y70.577 E7.19926
G1 X-124.592 Y70.524 E7.20228
G1 X-124.692 Y70.493 E7.20558
G1 X-124.821 Y70.490 E7.20961
G1 X-125.042 Y70.546 E7.21675
G1 X-125.549 Y70.860 E7.23546
G1 X-125.638 Y70.894 E7.23843
G1 X-125.748 Y71.099 F7800.000
G1 E3.23843 F2400.00000
M103 ; extruder off
G1 X-127.386 Y69.436 F7800.000
M101 ; extruder on
G1 E7.23843 F2400.00000
G1 F1800
G1 X-127.276 Y69.534 E7.24306
G1 X-127.178 Y69.711 E7.24940
G1 X-127.131 Y70.003 E7.25868
G1 X-127.173 Y70.270 E7.26712
G1 X-127.275 Y70.461 E7.27393
G1 X-127.476 Y70.614 E7.28185
G1 X-127.688 Y70.681 E7.28883
G1 X-128.015 Y70.715 E7.29914
G1 X-128.943 Y70.701 E7.32824
G1 X-129.047 Y70.733 E7.33166
G1 X-129.064 Y70.951 E7.33851
G1 X-129.047 Y74.864 E7.46120
G1 X-129.092 Y75.113 E7.46913
G1 X-129.180 Y75.316 E7.47607
G1 X-129.327 Y75.482 E7.48300
G1 X-129.514 Y75.584 E7.48970
G1 X-129.806 Y75.623 E7.49892
G1 X-130.117 Y75.553 E7.50892
G1 X-130.327 Y75.400 E7.51709
G1 X-130.406 Y75.267 E7.52194
G1 X-130.450 Y75.076 E7.52809
G1 X-130.411 Y74.428 E7.54842
G1 X-130.428 Y71.645 E7.63569
G1 X-130.392 Y71.081 E7.65341
G1 X-130.416 Y70.909 E7.65887
G1 X-130.454 Y70.837 E7.66140
G1 X-130.521 Y70.770 E7.66438
G1 X-130.701 Y70.693 E7.67050
G1 X-130.957 Y70.680 E7.67855
G1 X-131.681 Y70.755 E7.70138
G1 X-131.891 Y70.717 E7.70808
G1 X-132.066 Y70.619 E7.71435
G1 X-132.201 Y70.458 E7.72093
G1 X-132.286 Y70.254 E7.72788
G1 X-132.317 Y70.021 E7.73525
G1 X-132.282 Y69.791 E7.74255
G1 X-132.185 Y69.584 E7.74968
G1 X-132.036 Y69.427 E7.75649
G1 X-131.871 Y69.339 E7.76236
G1 X-131.643 Y69.303 E7.76961
G1 X-131.016 Y69.346 E7.78932
G1 X-127.706 Y69.335 E7.89307
G1 X-127.554 Y69.360 E7.89791
G1 X-127.440 Y69.411 E7.90182
G1 X-127.253 Y69.371 F7800.000
G1 E3.90182 F2400.00000
M103 ; extruder off
G1 X-132.946 Y70.427 F7800.000
M101 ; extruder on
G1 E7.90182 F2400.00000
G1 F1800
G1 X-132.972 Y70.578 E7.90661
G1 X-133.058 Y70.775 E7.91336
G1 X-133.163 Y70.911 E7.91874
G1 X-133.338 Y71.045 E7.92565
G1 X-133.547 Y71.109 E7.93249
G1 X-133.759 Y71.097 E7.93918
G1 X-133.989 Y71.025 E7.94672
G1 X-134.679 Y70.635 E7.97157
G1 X-134.829 Y70.590 E7.97648
G1 X-134.954 Y70.579 E7.98042
G1 X-135.239 Y70.611 E7.98940
G1 X-135.449 Y70.682 E7.99636
G1 X-135.640 Y70.788 E8.00322
G1 X-135.796 Y70.921 E8.00963
G1 X-135.967 Y71.151 E8.01862
G1 X-136.070 Y71.374 E8.02633
G1 X-136.151 Y71.649 E8.03532
G1 X-136.204 Y71.984 E8.04596
G1 X-136.228 Y72.422 E8.05969
G1 X-136.209 Y72.898 E8.07464
G1 X-136.160 Y73.245 E8.08563
G1 X-136.077 Y73.542 E8.09531
G1 X-135.966 Y73.783 E8.10360
G1 X-135.795 Y74.010 E8.11255
G1 X-135.579 Y74.178 E8.12110
G1 X-135.304 Y74.299 E8.13054
G1 X-135.078 Y74.345 E8.13775
G1 X-134.766 Y74.344 E8.14754
G1 X-134.446 Y74.263 E8.15788
G1 X-134.339 Y74.196 E8.16184
G1 X-134.175 Y74.003 E8.16978
G1 X-134.067 Y73.922 E8.17402
G1 X-133.935 Y73.862 E8.17855
G1 X-133.724 Y73.827 E8.18527
G1 X-133.489 Y73.854 E8.19269
G1 X-133.203 Y73.983 E8.20252
G1 X-133.000 Y74.195 E8.21174
G1 X-132.912 Y74.477 E8.22097
G1 X-132.991 Y74.752 E8.22996
G1 X-133.189 Y75.076 E8.24186
G1 X-133.398 Y75.293 E8.25128
G1 X-133.639 Y75.465 E8.26059
G1 X-133.829 Y75.565 E8.26731
G1 X-134.136 Y75.674 E8.27752
G1 X-134.477 Y75.741 E8.28844
G1 X-134.870 Y75.766 E8.30078
G1 X-135.292 Y75.744 E8.31400
G1 X-135.552 Y75.700 E8.32229
G1 X-135.826 Y75.624 E8.33121
G1 X-136.061 Y75.532 E8.33912
G1 X-136.473 Y75.295 E8.35401
G1 X-136.753 Y75.063 E8.36544
G1 X-136.923 Y74.883 E8.37317
G1 X-137.096 Y74.657 E8.38211
G1 X-137.266 Y74.371 E8.39254
G1 X-137.456 Y73.903 E8.40837
G1 X-137.558 Y73.493 E8.42163
G1 X-137.606 Y73.182 E8.43149
G1 X-137.649 Y72.491 E8.45320
G1 X-137.610 Y71.784 E8.47540
G1 X-137.491 Y71.148 E8.49569
G1 X-137.300 Y70.629 E8.51302
G1 X-137.111 Y70.296 E8.52502
G1 X-136.960 Y70.092 E8.53297
G1 X-136.714 Y69.830 E8.54426
G1 X-136.523 Y69.671 E8.55204
G1 X-136.222 Y69.478 E8.56324
G1 X-135.772 Y69.288 E8.57856
G1 X-135.475 Y69.214 E8.58817
G1 X-135.167 Y69.172 E8.59790
G1 X-134.895 Y69.163 E8.60644
G1 X-134.546 Y69.180 E8.61740
G1 X-134.170 Y69.246 E8.62935
G1 X-133.850 Y69.357 E8.63998
G1 X-133.573 Y69.508 E8.64989
G1 X-133.310 Y69.710 E8.66028
G1 X-133.074 Y69.977 E8.67146
G1 X-132.960 Y70.242 E8.68051
G1 X-132.951 Y70.367 E8.68444
G1 X-132.815 Y70.506 F7800.000
G1 X-132.476 Y71.254
M101 ; extruder on
G1 F1800
G1 X-132.150 Y71.437 E8.69616
G1 X-131.709 Y71.516 E8.71021
G1 X-131.172 Y71.460 E8.72714
G1 X-131.165 Y74.408 E8.81956
G1 X-131.209 Y75.139 E8.84252
G1 X-131.115 Y75.549 E8.85573
G1 X-130.898 Y75.917 E8.86913
G1 X-130.435 Y76.255 E8.88711
G1 X-129.839 Y76.389 E8.90624
G1 X-129.275 Y76.313 E8.92407
G1 X-128.849 Y76.081 E8.93928
G1 X-128.536 Y75.726 E8.95412
G1 X-128.365 Y75.333 E8.96757
G1 X-128.293 Y74.930 E8.98040
G1 X-128.308 Y71.465 E9.08905
G1 X-127.981 Y71.470 E9.09929
G1 X-127.534 Y71.423 E9.11338
G1 X-127.124 Y71.295 E9.12687
G1 X-126.906 Y71.129 E9.13544
G1 X-126.825 Y71.242 E9.13983
G1 X-126.429 Y71.554 E9.15561
G1 X-126.480 Y71.655 E9.15916
G1 X-126.581 Y72.060 E9.17225
G1 X-126.573 Y72.504 E9.18616
G1 X-126.402 Y72.990 E9.20232
G1 X-126.113 Y73.264 E9.21480
G1 X-126.371 Y73.309 E9.22299
G1 X-126.883 Y73.630 E9.24193
G1 X-127.209 Y74.172 E9.26175
G1 X-127.272 Y74.764 E9.28042
G1 X-127.170 Y75.237 E9.29558
G1 X-126.922 Y75.693 E9.31187
