; generated by PrusaSlicer 2.0.0 on 2020-01-18 at 18:59:21

; 

; external perimeters extrusion width = 0.45mm
; perimeters extrusion width = 0.45mm
; infill extrusion width = 0.45mm
; solid infill extrusion width = 0.45mm
; top infill extrusion width = 0.40mm
; first layer extrusion width = 0.42mm

M127
G28 ; home all axes
G1 Z5 F5000 ; lift nozzle
M109 T0 S200
M140 S60 ;set bed temp
M190 S60
; Filament gcode
M73 P0
G1 Z0.200 F7800.000
G1 E-4.00000 F2400.00000
M103 ; extruder off
G1 X-97.112 Y59.457 F7800.000
M101 ; extruder on
G1 E0.00000 F2400.00000
G1 F1800
G1 X-96.662 Y60.446 E0.03406
G1 X-96.393 Y61.498 E0.06813
G1 X-96.312 Y62.477 E0.09893
G1 X-96.318 Y82.795 E0.73597
G1 X-96.434 Y83.727 E0.76543
G1 X-96.688 Y84.625 E0.79469
G1 X-97.074 Y85.475 E0.82395
G1 X-97.583 Y86.257 E0.85321
G1 X-98.519 Y87.238 E0.89572
G1 X-99.646 Y87.991 E0.93822
G1 X-100.910 Y88.481 E0.98072
G1 X-102.250 Y88.683 E1.02322
G1 X-122.826 Y88.680 E1.66835
G1 X-123.745 Y88.562 E1.69743
G1 X-124.637 Y88.308 E1.72650
G1 X-125.481 Y87.923 E1.75557
G1 X-126.257 Y87.417 E1.78464
G1 X-127.238 Y86.481 E1.82714
G1 X-127.991 Y85.354 E1.86964
G1 X-128.481 Y84.090 E1.91214
G1 X-128.683 Y82.750 E1.95464
G1 X-128.680 Y62.174 E2.59978
G1 X-128.562 Y61.255 E2.62885
G1 X-128.308 Y60.363 E2.65792
G1 X-127.923 Y59.519 E2.68699
G1 X-127.417 Y58.743 E2.71606
G1 X-126.547 Y57.818 E2.75588
G1 X-125.506 Y57.090 E2.79570
G1 X-124.338 Y56.591 E2.83551
G1 X-123.100 Y56.341 E2.87514
G1 X-102.494 Y56.311 E3.52122
G1 X-101.412 Y56.408 E3.55528
G1 X-100.363 Y56.692 E3.58935
G1 X-99.380 Y57.155 E3.62341
G1 X-98.489 Y57.787 E3.65766
G1 X-97.727 Y58.561 E3.69173
G1 X-97.145 Y59.407 E3.72391
G1 E-0.27609 F2400.00000
M103 ; extruder off
G1 X-121.536 Y81.536 F7800.000
M101 ; extruder on
G1 E3.72391 F2400.00000
G1 F1800
G1 X-121.536 Y63.464 E4.29054
G1 X-103.464 Y63.464 E4.85716
G1 X-103.464 Y81.536 E5.42379
G1 X-121.476 Y81.536 E5.98853
G1 X-121.913 Y81.913 F7800.000
M101 ; extruder on
G1 F1800
G1 X-121.913 Y63.087 E6.57880
G1 X-103.087 Y63.087 E7.16907
G1 X-103.087 Y81.913 E7.75934
G1 X-121.853 Y81.913 E8.34773
G1 X-122.290 Y82.290 F7800.000
M101 ; extruder on
G1 F1800
G1 X-122.290 Y62.710 E8.96165
G1 X-102.710 Y62.710 E9.57557
G1 X-102.710 Y82.290 E10.18949
G1 X-122.230 Y82.290 E10.80152
G1 X-122.186 Y81.904 F7800.000
G1 X-121.423 Y80.660
M101 ; extruder on
G1 F1800
G1 X-120.829 Y81.253 E10.82786
G1 X-120.296 Y81.253 E10.84461
G1 X-121.253 Y80.296 E10.88711
G1 X-121.253 Y79.762 E10.90387
G1 X-119.762 Y81.253 E10.97006
G1 X-119.228 Y81.253 E10.98682
G1 X-121.253 Y79.228 E11.07671
G1 X-121.253 Y78.694 E11.09346
G1 X-118.694 Y81.253 E11.20705
G1 X-118.160 Y81.253 E11.22380
G1 X-121.253 Y78.160 E11.36108
G1 X-121.253 Y77.626 E11.37784
G1 X-117.626 Y81.253 E11.53881
G1 X-117.093 Y81.253 E11.55557
G1 X-121.253 Y77.093 E11.74024
G1 X-121.253 Y76.559 E11.75699
G1 X-116.559 Y81.253 E11.96536
G1 X-116.025 Y81.253 E11.98212
G1 X-121.253 Y76.025 E12.21418
G1 X-121.253 Y75.491 E12.23093
G1 X-115.491 Y81.253 E12.48669
G1 X-114.957 Y81.253 E12.50345
G1 X-121.253 Y74.957 E12.78290
G1 X-121.253 Y74.424 E12.79965
G1 X-114.424 Y81.253 E13.10280
G1 X-113.890 Y81.253 E13.11956
G1 X-121.253 Y73.890 E13.44640
G1 X-121.253 Y73.356 E13.46316
G1 X-113.356 Y81.253 E13.81370
G1 X-112.822 Y81.253 E13.83045
G1 X-121.253 Y72.822 E14.20468
G1 X-121.253 Y72.288 E14.22144
G1 X-112.288 Y81.253 E14.61937
G1 X-111.754 Y81.253 E14.63612
G1 X-121.253 Y71.754 E15.05775
G1 X-121.253 Y71.221 E15.07450
G1 X-111.221 Y81.253 E15.51983
G1 X-110.687 Y81.253 E15.53658
G1 X-121.253 Y70.687 E16.00560
G1 X-121.253 Y70.153 E16.02235
G1 X-110.153 Y81.253 E16.51506
G1 X-109.619 Y81.253 E16.53182
G1 X-121.253 Y69.619 E17.04822
G1 X-121.253 Y69.085 E17.06498
G1 X-109.085 Y81.253 E17.60508
G1 X-108.551 Y81.253 E17.62184
G1 X-121.253 Y68.551 E18.18563
G1 X-121.253 Y68.018 E18.20239
G1 X-108.018 Y81.253 E18.78988
G1 X-107.484 Y81.253 E18.80664
G1 X-121.253 Y67.484 E19.41782
G1 X-121.253 Y66.950 E19.43458
G1 X-106.950 Y81.253 E20.06946
G1 X-106.416 Y81.253 E20.08622
G1 X-121.253 Y66.416 E20.74480
G1 X-121.253 Y65.882 E20.76155
G1 X-105.882 Y81.253 E21.44383
G1 X-105.348 Y81.253 E21.46058
G1 X-121.253 Y65.348 E22.16655
G1 X-121.253 Y64.815 E22.18331
G1 X-104.815 Y81.253 E22.91297
G1 X-104.281 Y81.253 E22.92973
G1 X-121.253 Y64.281 E23.68309
G1 X-121.253 Y63.747 E23.69984
G1 X-103.747 Y81.253 E24.47690
G1 X-103.747 Y80.719 E24.49365
G1 X-120.719 Y63.747 E25.24702
G1 X-120.185 Y63.747 E25.26377
G1 X-103.747 Y80.185 E25.99344
G1 X-103.747 Y79.652 E26.01020
G1 X-119.652 Y63.747 E26.71617
G1 X-119.118 Y63.747 E26.73293
G1 X-103.747 Y79.118 E27.41520
G1 X-103.747 Y78.584 E27.43196
G1 X-118.584 Y63.747 E28.09054
G1 X-118.050 Y63.747 E28.10730
G1 X-103.747 Y78.050 E28.74219
G1 X-103.747 Y77.516 E28.75894
G1 X-117.516 Y63.747 E29.37013
G1 X-116.983 Y63.747 E29.38689
G1 X-103.747 Y76.983 E29.97439
G1 X-103.747 Y76.449 E29.99114
G1 X-116.449 Y63.747 E30.55494
G1 X-115.915 Y63.747 E30.57170
G1 X-103.747 Y75.915 E31.11181
G1 X-103.747 Y75.381 E31.12856
G1 X-115.381 Y63.747 E31.64497
G1 X-114.847 Y63.747 E31.66173
G1 X-103.747 Y74.847 E32.15444
G1 X-103.747 Y74.313 E32.17120
G1 X-114.313 Y63.747 E32.64022
G1 X-113.780 Y63.747 E32.65697
G1 X-103.747 Y73.780 E33.10230
G1 X-103.747 Y73.246 E33.11906
G1 X-113.246 Y63.747 E33.54069
G1 X-112.712 Y63.747 E33.55744
G1 X-103.747 Y72.712 E33.95537
G1 X-103.747 Y72.178 E33.97213
G1 X-112.178 Y63.747 E34.34637
G1 X-111.644 Y63.747 E34.36312
G1 X-103.747 Y71.644 E34.71367
G1 X-103.747 Y71.110 E34.73042
G1 X-111.110 Y63.747 E35.05727
G1 X-110.577 Y63.747 E35.07403
G1 X-103.747 Y70.577 E35.37718
G1 X-103.747 Y70.043 E35.39393
G1 X-110.043 Y63.747 E35.67339
G1 X-109.509 Y63.747 E35.69015
G1 X-103.747 Y69.509 E35.94591
G1 X-103.747 Y68.975 E35.96266
G1 X-108.975 Y63.747 E36.19473
G1 X-108.441 Y63.747 E36.21149
G1 X-103.747 Y68.441 E36.41986
G1 X-103.747 Y67.907 E36.43661
G1 X-107.907 Y63.747 E36.62129
G1 X-107.374 Y63.747 E36.63805
G1 X-103.747 Y67.374 E36.79903
G1 X-103.747 Y66.840 E36.81578
G1 X-106.840 Y63.747 E36.95307
G1 X-106.306 Y63.747 E36.96982
G1 X-103.747 Y66.306 E37.08341
G1 X-103.747 Y65.772 E37.10017
G1 X-105.772 Y63.747 E37.19006
G1 X-105.238 Y63.747 E37.20682
G1 X-103.747 Y65.238 E37.27302
G1 X-103.747 Y64.705 E37.28977
G1 X-104.705 Y63.747 E37.33227
G1 X-104.171 Y63.747 E37.34903
G1 X-103.577 Y64.340 E37.37537
M73 P1
G1 Z0.400 F7800.000
G1 X-121.461 Y81.461
M101 ; extruder on
G1 F3600
G1 X-121.461 Y63.539 E37.98200
G1 X-103.539 Y63.539 E38.58863
G1 X-103.539 Y81.461 E39.19525
G1 X-121.401 Y81.461 E39.79985
G1 X-121.868 Y81.868 F7800.000
M101 ; extruder on
G1 F3600
G1 X-121.868 Y63.132 E40.43404
G1 X-103.132 Y63.132 E41.06822
G1 X-103.132 Y81.868 E41.70241
G1 X-121.808 Y81.868 E42.33456
G1 X-122.275 Y82.275 F7800.000
M101 ; extruder on
G1 F1800
G1 X-122.275 Y62.725 E42.99631
G1 X-102.725 Y62.725 E43.65805
G1 X-102.725 Y82.275 E44.31980
G1 X-122.215 Y82.275 E44.97951
G1 X-122.171 Y81.889 F7800.000
G1 X-104.492 Y81.339
M101 ; extruder on
G1 F1200
G1 X-103.844 Y80.691 E45.01079
G1 X-103.844 Y80.110 E45.03063
G1 X-104.890 Y81.156 E45.08112
G1 X-105.471 Y81.156 E45.10097
G1 X-103.844 Y79.529 E45.17952
G1 X-103.844 Y78.948 E45.19936
G1 X-106.052 Y81.156 E45.30598
G1 X-106.633 Y81.156 E45.32582
G1 X-103.844 Y78.367 E45.46049
G1 X-103.844 Y77.787 E45.48033
G1 X-107.213 Y81.156 E45.64307
G1 X-107.794 Y81.156 E45.66291
G1 X-103.844 Y77.206 E45.85371
G1 X-103.844 Y76.625 E45.87355
G1 X-108.375 Y81.156 E46.09241
G1 X-108.956 Y81.156 E46.11225
G1 X-103.844 Y76.044 E46.35917
G1 X-103.844 Y75.463 E46.37901
G1 X-109.537 Y81.156 E46.65399
G1 X-110.118 Y81.156 E46.67383
G1 X-103.844 Y74.882 E46.97688
G1 X-103.844 Y74.301 E46.99672
G1 X-110.699 Y81.156 E47.32782
G1 X-111.280 Y81.156 E47.34766
G1 X-103.844 Y73.720 E47.70682
G1 X-103.844 Y73.139 E47.72667
G1 X-111.861 Y81.156 E48.11389
G1 X-112.442 Y81.156 E48.13373
G1 X-103.844 Y72.558 E48.54902
G1 X-103.844 Y71.977 E48.56886
G1 X-113.023 Y81.156 E49.01220
G1 X-113.604 Y81.156 E49.03205
G1 X-103.844 Y71.396 E49.50345
G1 X-103.844 Y70.815 E49.52329
G1 X-114.185 Y81.156 E50.02276
G1 X-114.765 Y81.156 E50.04260
G1 X-103.844 Y70.235 E50.57013
G1 X-103.844 Y69.654 E50.58997
G1 X-115.346 Y81.156 E51.14556
G1 X-115.927 Y81.156 E51.16540
G1 X-103.844 Y69.073 E51.74905
G1 X-103.844 Y68.492 E51.76890
G1 X-116.508 Y81.156 E52.38061
G1 X-117.089 Y81.156 E52.40045
G1 X-103.844 Y67.911 E53.04022
G1 X-103.844 Y67.330 E53.06006
G1 X-117.670 Y81.156 E53.72790
G1 X-118.251 Y81.156 E53.74774
G1 X-103.844 Y66.749 E54.44363
G1 X-103.844 Y66.168 E54.46347
G1 X-118.832 Y81.156 E55.18743
G1 X-119.413 Y81.156 E55.20727
G1 X-103.844 Y65.587 E55.95929
G1 X-103.844 Y65.006 E55.97913
G1 X-119.994 Y81.156 E56.75920
G1 X-120.575 Y81.156 E56.77905
G1 X-103.844 Y64.425 E57.58718
G1 X-103.844 Y63.844 E57.60702
G1 X-121.156 Y81.156 E58.44322
G1 X-121.156 Y80.575 E58.46306
G1 X-104.425 Y63.844 E59.27119
G1 X-105.006 Y63.844 E59.29103
G1 X-121.156 Y79.994 E60.07111
G1 X-121.156 Y79.413 E60.09095
G1 X-105.587 Y63.844 E60.84296
G1 X-106.168 Y63.844 E60.86280
G1 X-121.156 Y78.832 E61.58675
G1 X-121.156 Y78.251 E61.60659
G1 X-106.749 Y63.844 E62.30248
G1 X-107.330 Y63.844 E62.32232
G1 X-121.156 Y77.670 E62.99015
G1 X-121.156 Y77.089 E63.00999
G1 X-107.911 Y63.844 E63.64976
G1 X-108.492 Y63.844 E63.66960
G1 X-121.156 Y76.508 E64.28131
G1 X-121.156 Y75.927 E64.30115
G1 X-109.073 Y63.844 E64.88479
G1 X-109.654 Y63.844 E64.90464
G1 X-121.156 Y75.346 E65.46022
G1 X-121.156 Y74.765 E65.48006
G1 X-110.235 Y63.844 E66.00759
G1 X-110.816 Y63.844 E66.02743
G1 X-121.156 Y74.184 E66.52689
G1 X-121.156 Y73.603 E66.54673
G1 X-111.397 Y63.844 E67.01813
G1 X-111.977 Y63.844 E67.03797
G1 X-121.156 Y73.023 E67.48132
G1 X-121.156 Y72.442 E67.50116
G1 X-112.558 Y63.844 E67.91644
G1 X-113.139 Y63.844 E67.93628
G1 X-121.156 Y71.861 E68.32350
G1 X-121.156 Y71.280 E68.34334
G1 X-113.720 Y63.844 E68.70250
G1 X-114.301 Y63.844 E68.72234
G1 X-121.156 Y70.699 E69.05344
G1 X-121.156 Y70.118 E69.07328
G1 X-114.882 Y63.844 E69.37631
G1 X-115.463 Y63.844 E69.39616
G1 X-121.156 Y69.537 E69.67113
G1 X-121.156 Y68.956 E69.69097
G1 X-116.044 Y63.844 E69.93789
G1 X-116.625 Y63.844 E69.95773
G1 X-121.156 Y68.375 E70.17658
G1 X-121.156 Y67.794 E70.19642
G1 X-117.206 Y63.844 E70.38721
G1 X-117.787 Y63.844 E70.40706
G1 X-121.156 Y67.213 E70.56979
G1 X-121.156 Y66.632 E70.58963
G1 X-118.368 Y63.844 E70.72430
G1 X-118.949 Y63.844 E70.74414
G1 X-121.156 Y66.051 E70.85075
G1 X-121.156 Y65.471 E70.87059
G1 X-119.529 Y63.844 E70.94914
G1 X-120.110 Y63.844 E70.96898
G1 X-121.156 Y64.890 E71.01947
G1 X-121.156 Y64.309 E71.03931
G1 X-120.508 Y63.661 E71.07059
M73 P2
G1 Z0.600 F7800.000
G1 X-121.461 Y81.461
M101 ; extruder on
G1 F3600
G1 X-121.461 Y63.539 E71.67722
G1 X-103.539 Y63.539 E72.28384
G1 X-103.539 Y81.461 E72.89047
G1 X-121.401 Y81.461 E73.49507
G1 X-121.868 Y81.868 F7800.000
M101 ; extruder on
G1 F3600
G1 X-121.868 Y63.132 E74.12925
G1 X-103.132 Y63.132 E74.76344
G1 X-103.132 Y81.868 E75.39763
G1 X-121.808 Y81.868 E76.02978
G1 X-122.275 Y82.275 F7800.000
M101 ; extruder on
G1 F1800
G1 X-122.275 Y62.725 E76.69152
G1 X-102.725 Y62.725 E77.35327
G1 X-102.725 Y82.275 E78.01501
G1 X-122.215 Y82.275 E78.67473
G1 X-122.171 Y81.889 F7800.000
G1 X-121.339 Y80.508
M101 ; extruder on
G1 F1200
G1 X-120.691 Y81.156 E78.70600
G1 X-120.110 Y81.156 E78.72584
G1 X-121.156 Y80.110 E78.77633
G1 X-121.156 Y79.529 E78.79617
G1 X-119.529 Y81.156 E78.87472
G1 X-118.949 Y81.156 E78.89456
G1 X-121.156 Y78.949 E79.00117
G1 X-121.156 Y78.368 E79.02101
G1 X-118.368 Y81.156 E79.15568
G1 X-117.787 Y81.156 E79.17553
G1 X-121.156 Y77.787 E79.33826
G1 X-121.156 Y77.206 E79.35810
G1 X-117.206 Y81.156 E79.54889
G1 X-116.625 Y81.156 E79.56873
G1 X-121.156 Y76.625 E79.78759
G1 X-121.156 Y76.044 E79.80743
G1 X-116.044 Y81.156 E80.05434
G1 X-115.463 Y81.156 E80.07418
G1 X-121.156 Y75.463 E80.34916
G1 X-121.156 Y74.882 E80.36900
G1 X-114.882 Y81.156 E80.67204
G1 X-114.301 Y81.156 E80.69188
G1 X-121.156 Y74.301 E81.02298
G1 X-121.156 Y73.720 E81.04282
G1 X-113.720 Y81.156 E81.40197
G1 X-113.139 Y81.156 E81.42182
G1 X-121.156 Y73.139 E81.80904
G1 X-121.156 Y72.558 E81.82888
G1 X-112.558 Y81.156 E82.24416
G1 X-111.977 Y81.156 E82.26400
G1 X-121.156 Y71.977 E82.70734
G1 X-121.156 Y71.397 E82.72718
G1 X-111.397 Y81.156 E83.19858
G1 X-110.816 Y81.156 E83.21842
G1 X-121.156 Y70.816 E83.71789
G1 X-121.156 Y70.235 E83.73773
G1 X-110.235 Y81.156 E84.26525
G1 X-109.654 Y81.156 E84.28509
G1 X-121.156 Y69.654 E84.84068
G1 X-121.156 Y69.073 E84.86052
G1 X-109.073 Y81.156 E85.44416
G1 X-108.492 Y81.156 E85.46401
G1 X-121.156 Y68.492 E86.07571
G1 X-121.156 Y67.911 E86.09555
G1 X-107.911 Y81.156 E86.73532
G1 X-107.330 Y81.156 E86.75516
G1 X-121.156 Y67.330 E87.42299
G1 X-121.156 Y66.749 E87.44283
G1 X-106.749 Y81.156 E88.13872
G1 X-106.168 Y81.156 E88.15856
G1 X-121.156 Y66.168 E88.88251
G1 X-121.156 Y65.587 E88.90236
G1 X-105.587 Y81.156 E89.65437
G1 X-105.006 Y81.156 E89.67421
G1 X-121.156 Y65.006 E90.45428
G1 X-121.156 Y64.425 E90.47412
G1 X-104.425 Y81.156 E91.28225
G1 X-103.844 Y81.156 E91.30210
G1 X-121.156 Y63.844 E92.13829
G1 X-120.575 Y63.844 E92.15813
G1 X-103.844 Y80.575 E92.96627
G1 X-103.844 Y79.994 E92.98611
G1 X-119.994 Y63.844 E93.76619
G1 X-119.413 Y63.844 E93.78603
G1 X-103.844 Y79.413 E94.53804
G1 X-103.844 Y78.832 E94.55789
G1 X-118.832 Y63.844 E95.28184
G1 X-118.251 Y63.844 E95.30168
G1 X-103.844 Y78.251 E95.99758
G1 X-103.844 Y77.670 E96.01742
G1 X-117.670 Y63.844 E96.68525
G1 X-117.089 Y63.844 E96.70509
G1 X-103.844 Y77.089 E97.34487
G1 X-103.844 Y76.508 E97.36471
G1 X-116.508 Y63.844 E97.97642
G1 X-115.927 Y63.844 E97.99626
G1 X-103.844 Y75.927 E98.57991
G1 X-103.844 Y75.346 E98.59975
G1 X-115.346 Y63.844 E99.15534
G1 X-114.765 Y63.844 E99.17518
G1 X-103.844 Y74.765 E99.70271
G1 X-103.844 Y74.185 E99.72255
G1 X-114.185 Y63.844 E100.22202
G1 X-113.604 Y63.844 E100.24186
G1 X-103.844 Y73.604 E100.71327
G1 X-103.844 Y73.023 E100.73311
G1 X-113.023 Y63.844 E101.17646
G1 X-112.442 Y63.844 E101.19630
G1 X-103.844 Y72.442 E101.61158
G1 X-103.844 Y71.861 E101.63143
G1 X-111.861 Y63.844 E102.01865
G1 X-111.280 Y63.844 E102.03849
G1 X-103.844 Y71.280 E102.39765
G1 X-103.844 Y70.699 E102.41750
G1 X-110.699 Y63.844 E102.74860
G1 X-110.118 Y63.844 E102.76844
G1 X-103.844 Y70.118 E103.07148
G1 X-103.844 Y69.537 E103.09132
G1 X-109.537 Y63.844 E103.36630
G1 X-108.956 Y63.844 E103.38614
G1 X-103.844 Y68.956 E103.63306
G1 X-103.844 Y68.375 E103.65291
G1 X-108.375 Y63.844 E103.87176
G1 X-107.794 Y63.844 E103.89161
G1 X-103.844 Y67.794 E104.08240
G1 X-103.844 Y67.213 E104.10224
G1 X-107.213 Y63.844 E104.26498
G1 X-106.633 Y63.844 E104.28482
G1 X-103.844 Y66.633 E104.41950
G1 X-103.844 Y66.052 E104.43934
G1 X-106.052 Y63.844 E104.54595
G1 X-105.471 Y63.844 E104.56580
G1 X-103.844 Y65.471 E104.64435
G1 X-103.844 Y64.890 E104.66419
G1 X-104.890 Y63.844 E104.71468
G1 X-104.309 Y63.844 E104.73453
G1 X-103.661 Y64.492 E104.76581
M126
M73 P3
G1 Z0.800 F7800.000
G1 X-121.461 Y81.461
M101 ; extruder on
G1 F3600
G1 X-121.461 Y63.539 E105.37243
G1 X-103.539 Y63.539 E105.97906
G1 X-103.539 Y81.461 E106.58569
G1 X-121.401 Y81.461 E107.19029
G1 X-121.868 Y81.868 F7800.000
M101 ; extruder on
G1 F3600
G1 X-121.868 Y63.132 E107.82447
G1 X-103.132 Y63.132 E108.45866
G1 X-103.132 Y81.868 E109.09284
G1 X-121.808 Y81.868 E109.72500
G1 X-122.275 Y82.275 F7800.000
M101 ; extruder on
G1 F1800
G1 X-122.275 Y62.725 E110.38674
G1 X-102.725 Y62.725 E111.04849
G1 X-102.725 Y82.275 E111.71023
G1 X-122.215 Y82.275 E112.36994
G1 X-122.171 Y81.889 F7800.000
G1 X-121.339 Y80.932
M101 ; extruder on
G1 F4800
G1 X-121.115 Y81.156 E112.38064
G1 X-112.480 Y81.156 E112.67294
G1 X-121.156 Y72.480 E113.08823
G1 X-121.156 Y63.844 E113.38053
G1 X-103.844 Y81.156 E114.20921
G1 X-103.844 Y72.520 E114.50151
G1 X-112.520 Y63.844 E114.91680
G1 X-103.885 Y63.844 E115.20910
G1 X-103.661 Y64.068 E115.21980
G1 X-103.661 Y66.971 F7800.000
M101 ; extruder on
G1 F4800
G1 X-121.339 Y71.708 E115.83926
