;FLAVOR:Marlin
;TIME:1183
;Filament used: 1.4408m
;Layer height: 0.2
;MINX:94.7
;MINY:54.7
;MINZ:0.3
;MAXX:130.3
;MAXY:90.3
;MAXZ:19.9
;Generated with Cura_SteamEngine 4.4.1
M140 S60
M105
M190 S60
M104 S200
M105
M109 S200
M82 ;absolute extrusion mode

G92 E0
G92 E0
G1 F2400 E-4
;LAYER_COUNT:99
;LAYER:0
M107
G0 F3600 X95.679 Y58.717 Z0.3
;TYPE:SKIRT
G1 F2400 E0
G1 F1800 X96.097 Y58.046 E0.03944
G1 X96.58 Y57.422 E0.07881
G1 X97.123 Y56.849 E0.11819
G1 X97.722 Y56.334 E0.1576
G1 X98.37 Y55.883 E0.19699
G1 X99.061 Y55.499 E0.23643
G1 X99.786 Y55.187 E0.27581
G1 X100.539 Y54.95 E0.31519
G1 X101.313 Y54.791 E0.35461
G1 X102.098 Y54.71 E0.39399
G1 X102.5 Y54.7 E0.41405
G1 X122.5 Y54.7 E1.41185
G1 X123.289 Y54.74 E1.45127
G1 X124.069 Y54.859 E1.49063
G1 X124.834 Y55.057 E1.53005
G1 X125.574 Y55.331 E1.56942
G1 X126.283 Y55.679 E1.60883
G1 X126.954 Y56.097 E1.64827
G1 X127.578 Y56.58 E1.68763
G1 X128.151 Y57.123 E1.72702
G1 X128.666 Y57.722 E1.76643
G1 X129.117 Y58.37 E1.80582
G1 X129.501 Y59.061 E1.84526
G1 X129.813 Y59.786 E1.88463
G1 X130.05 Y60.539 E1.92402
G1 X130.209 Y61.313 E1.96344
G1 X130.29 Y62.098 E2.00281
G1 X130.3 Y62.5 E2.02287
G1 X130.3 Y82.5 E3.02068
G1 X130.26 Y83.289 E3.06009
G1 X130.141 Y84.069 E3.09946
G1 X129.943 Y84.834 E3.13888
G1 X129.669 Y85.574 E3.17825
G1 X129.321 Y86.283 E3.21765
G1 X128.903 Y86.954 E3.25709
G1 X128.42 Y87.578 E3.29646
G1 X127.877 Y88.151 E3.33584
G1 X127.278 Y88.666 E3.37526
G1 X126.63 Y89.117 E3.41464
G1 X125.939 Y89.501 E3.45408
G1 X125.214 Y89.813 E3.49346
G1 X124.461 Y90.05 E3.53285
G1 X123.687 Y90.209 E3.57227
G1 X122.902 Y90.29 E3.61164
G1 X122.5 Y90.3 E3.6317
G1 X102.5 Y90.3 E4.6295
G1 X101.711 Y90.26 E4.66892
G1 X100.931 Y90.141 E4.70828
G1 X100.166 Y89.943 E4.74771
G1 X99.426 Y89.669 E4.78707
G1 X98.717 Y89.321 E4.82648
G1 X98.046 Y88.903 E4.86592
G1 X97.422 Y88.42 E4.90529
G1 X96.849 Y87.877 E4.94467
G1 X96.334 Y87.278 E4.98408
G1 X95.883 Y86.63 E5.02347
G1 X95.499 Y85.939 E5.06291
G1 X95.187 Y85.214 E5.10229
G1 X94.95 Y84.461 E5.14167
G1 X94.791 Y83.687 E5.18109
G1 X94.71 Y82.902 E5.22046
G1 X94.7 Y82.5 E5.24053
G1 X94.7 Y62.5 E6.23833
G1 X94.74 Y61.711 E6.27774
G1 X94.859 Y60.931 E6.31711
G1 X95.057 Y60.166 E6.35653
G1 X95.331 Y59.426 E6.3959
G1 X95.679 Y58.717 E6.4353
G0 F3600 X96.078 Y58.824
G1 F1800 X96.494 Y58.177 E6.47368
G1 X96.975 Y57.577 E6.51205
G1 X97.516 Y57.03 E6.55043
G1 X98.111 Y56.542 E6.58882
G1 X98.753 Y56.119 E6.62718
G1 X99.436 Y55.764 E6.66558
G1 X100.151 Y55.483 E6.70391
G1 X100.893 Y55.277 E6.74233
G1 X101.651 Y55.149 E6.78068
G1 X102.5 Y55.1 E6.82311
G1 X122.5 Y55.1 E7.82091
G1 X123.268 Y55.14 E7.85928
G1 X124.028 Y55.259 E7.89766
G1 X124.771 Y55.457 E7.93602
G1 X125.49 Y55.731 E7.9744
G1 X126.176 Y56.078 E8.01276
G1 X126.823 Y56.494 E8.05113
G1 X127.423 Y56.975 E8.0895
G1 X127.97 Y57.516 E8.12788
G1 X128.458 Y58.111 E8.16627
G1 X128.881 Y58.753 E8.20463
G1 X129.236 Y59.436 E8.24303
G1 X129.517 Y60.151 E8.28136
G1 X129.723 Y60.893 E8.31978
G1 X129.851 Y61.651 E8.35813
G1 X129.9 Y62.5 E8.40056
G1 X129.9 Y82.5 E9.39836
G1 X129.86 Y83.268 E9.43673
G1 X129.741 Y84.028 E9.47511
G1 X129.543 Y84.771 E9.51347
G1 X129.269 Y85.49 E9.55186
G1 X128.922 Y86.176 E9.59021
G1 X128.506 Y86.823 E9.62859
G1 X128.025 Y87.423 E9.66695
G1 X127.484 Y87.97 E9.70534
G1 X126.889 Y88.458 E9.74373
G1 X126.247 Y88.881 E9.78209
G1 X125.564 Y89.236 E9.82049
G1 X124.849 Y89.517 E9.85882
G1 X124.107 Y89.723 E9.89723
G1 X123.349 Y89.851 E9.93559
G1 X122.5 Y89.9 E9.97801
G1 X102.5 Y89.9 E10.97582
G1 X101.732 Y89.86 E11.01419
G1 X100.972 Y89.741 E11.05256
G1 X100.229 Y89.543 E11.09093
G1 X99.51 Y89.269 E11.12931
G1 X98.824 Y88.922 E11.16767
G1 X98.177 Y88.506 E11.20604
G1 X97.577 Y88.025 E11.24441
G1 X97.03 Y87.484 E11.28279
G1 X96.542 Y86.889 E11.32118
G1 X96.119 Y86.247 E11.35954
G1 X95.764 Y85.564 E11.39794
G1 X95.483 Y84.849 E11.43627
G1 X95.277 Y84.107 E11.47469
G1 X95.149 Y83.349 E11.51304
G1 X95.1 Y82.5 E11.55547
G1 X95.1 Y62.5 E12.55327
G1 X95.14 Y61.732 E12.59164
G1 X95.259 Y60.972 E12.63002
G1 X95.457 Y60.229 E12.66838
G1 X95.731 Y59.51 E12.70677
G1 X96.078 Y58.824 E12.74512
G0 F3600 X96.477 Y58.934
G1 F1800 X96.892 Y58.311 E12.78247
G1 X97.371 Y57.737 E12.81977
G1 X97.908 Y57.216 E12.8571
G1 X98.498 Y56.757 E12.89439
G1 X99.134 Y56.362 E12.93174
G1 X99.808 Y56.038 E12.96905
G1 X100.513 Y55.788 E13.00637
G1 X101.241 Y55.614 E13.04371
G1 X101.983 Y55.519 E13.08103
G1 X102.5 Y55.5 E13.10684
G1 X122.5 Y55.5 E14.10465
G1 X123.247 Y55.54 E14.14197
G1 X123.985 Y55.659 E14.17926
G1 X124.707 Y55.857 E14.21661
G1 X125.403 Y56.13 E14.25391
G1 X126.066 Y56.477 E14.29125
G1 X126.689 Y56.892 E14.32859
G1 X127.263 Y57.371 E14.36589
G1 X127.784 Y57.908 E14.40322
G1 X128.243 Y58.498 E14.44051
G1 X128.638 Y59.134 E14.47786
G1 X128.962 Y59.808 E14.51517
G1 X129.212 Y60.513 E14.55249
G1 X129.386 Y61.241 E14.58984
G1 X129.481 Y61.983 E14.62716
G1 X129.5 Y62.5 E14.65297
G1 X129.5 Y82.5 E15.65077
G1 X129.46 Y83.247 E15.68809
G1 X129.341 Y83.985 E15.72539
G1 X129.143 Y84.707 E15.76274
G1 X128.87 Y85.403 E15.80004
G1 X128.523 Y86.066 E15.83737
G1 X128.108 Y86.689 E15.87472
G1 X127.629 Y87.263 E15.91202
G1 X127.092 Y87.784 E15.94934
G1 X126.502 Y88.243 E15.98664
G1 X125.866 Y88.638 E16.02399
G1 X125.192 Y88.962 E16.0613
G1 X124.487 Y89.212 E16.09862
G1 X123.759 Y89.386 E16.13596
G1 X123.017 Y89.481 E16.17328
G1 X122.5 Y89.5 E16.19909
G1 X102.5 Y89.5 E17.1969
G1 X101.753 Y89.46 E17.23422
G1 X101.015 Y89.341 E17.27151
G1 X100.293 Y89.143 E17.30886
G1 X99.597 Y88.87 E17.34616
G1 X98.934 Y88.523 E17.3835
G1 X98.311 Y88.108 E17.42084
G1 X97.737 Y87.629 E17.45814
G1 X97.216 Y87.092 E17.49547
G1 X96.757 Y86.502 E17.53276
G1 X96.362 Y85.866 E17.57011
G1 X96.038 Y85.192 E17.60742
G1 X95.788 Y84.487 E17.64474
G1 X95.614 Y83.759 E17.68208
G1 X95.519 Y83.017 E17.71941
G1 X95.5 Y82.5 E17.74522
G1 X95.5 Y62.5 E18.74302
G1 X95.54 Y61.753 E18.78034
G1 X95.659 Y61.015 E18.81764
G1 X95.857 Y60.293 E18.85499
G1 X96.13 Y59.597 E18.89229
G1 X96.477 Y58.934 E18.92962
G0 F3600 X96.875 Y59.047
G1 F1800 X97.289 Y58.45 E18.96586
G1 X97.765 Y57.902 E19.00208
G1 X98.299 Y57.409 E19.03834
G1 X98.884 Y56.979 E19.07456
G1 X99.513 Y56.615 E19.11082
G1 X100.178 Y56.322 E19.14707
G1 X100.871 Y56.104 E19.18331
G1 X101.583 Y55.964 E19.21952
G1 X102.5 Y55.9 E19.26538
G1 X122.5 Y55.9 E20.26318
G1 X123.225 Y55.94 E20.29941
G1 X123.942 Y56.059 E20.33567
G1 X124.641 Y56.257 E20.37191
G1 X125.314 Y56.53 E20.40815
G1 X125.953 Y56.875 E20.44438
G1 X126.55 Y57.289 E20.48062
G1 X127.098 Y57.765 E20.51683
G1 X127.591 Y58.299 E20.55309
G1 X128.021 Y58.884 E20.58932
G1 X128.385 Y59.513 E20.62557
G1 X128.678 Y60.178 E20.66183
G1 X128.896 Y60.871 E20.69807
G1 X129.036 Y61.583 E20.73427
G1 X129.1 Y62.5 E20.78013
G1 X129.1 Y82.5 E21.77794
G1 X129.06 Y83.225 E21.81416
G1 X128.941 Y83.942 E21.85042
G1 X128.743 Y84.641 E21.88667
G1 X128.47 Y85.314 E21.9229
G1 X128.125 Y85.953 E21.95913
G1 X127.711 Y86.55 E21.99538
G1 X127.235 Y87.098 E22.03159
G1 X126.701 Y87.591 E22.06785
G1 X126.116 Y88.021 E22.10407
G1 X125.487 Y88.385 E22.14033
G1 X124.822 Y88.678 E22.17658
G1 X124.129 Y88.896 E22.21283
G1 X123.417 Y89.036 E22.24903
G1 X122.5 Y89.1 E22.29489
G1 X102.5 Y89.1 E23.29269
G1 X101.775 Y89.06 E23.32892
G1 X101.058 Y88.941 E23.36518
G1 X100.359 Y88.743 E23.40143
G1 X99.686 Y88.47 E23.43766
G1 X99.047 Y88.125 E23.47389
G1 X98.45 Y87.711 E23.51013
G1 X97.902 Y87.235 E23.54635
G1 X97.409 Y86.701 E23.58261
G1 X96.979 Y86.116 E23.61883
G1 X96.615 Y85.487 E23.65509
G1 X96.322 Y84.822 E23.69134
G1 X96.104 Y84.129 E23.72758
G1 X95.964 Y83.417 E23.76379
G1 X95.9 Y82.5 E23.80965
G1 X95.9 Y62.5 E24.80745
G1 X95.94 Y61.775 E24.84368
G1 X96.059 Y61.058 E24.87994
G1 X96.257 Y60.359 E24.91618
G1 X96.53 Y59.686 E24.95242
G1 X96.875 Y59.047 E24.98864
G0 F3600 X96.929 Y59.779
G1 F1800 X97.274 Y59.165 E25.02378
G1 X97.685 Y58.594 E25.05888
G1 X98.159 Y58.073 E25.09402
G1 X98.689 Y57.609 E25.12917
G1 X99.268 Y57.209 E25.16427
G1 X99.889 Y56.877 E25.19941
G1 X100.543 Y56.617 E25.23452
G1 X101.223 Y56.433 E25.26966
G1 X101.919 Y56.327 E25.30479
G1 X102.5 Y56.3 E25.3338
G1 X122.5 Y56.3 E26.33161
G1 X123.203 Y56.34 E26.36674
G1 X123.897 Y56.459 E26.40187
G1 X124.572 Y56.657 E26.43696
G1 X125.221 Y56.929 E26.47207
G1 X125.835 Y57.274 E26.50721
G1 X126.406 Y57.685 E26.54231
G1 X126.927 Y58.159 E26.57745
G1 X127.391 Y58.689 E26.61259
G1 X127.791 Y59.268 E26.6477
G1 X128.123 Y59.889 E26.68283
G1 X128.383 Y60.543 E26.71794
G1 X128.567 Y61.223 E26.75309
G1 X128.673 Y61.919 E26.78821
G1 X128.7 Y62.5 E26.81723
G1 X128.7 Y82.5 E27.81503
G1 X128.66 Y83.203 E27.85016
G1 X128.541 Y83.897 E27.88529
G1 X128.343 Y84.572 E27.92039
G1 X128.071 Y85.221 E27.95549
G1 X127.726 Y85.835 E27.99063
G1 X127.315 Y86.406 E28.02573
G1 X126.841 Y86.927 E28.06087
G1 X126.311 Y87.391 E28.09602
G1 X125.732 Y87.791 E28.13112
G1 X125.111 Y88.123 E28.16626
G1 X124.457 Y88.383 E28.20137
G1 X123.777 Y88.567 E28.23651
G1 X123.081 Y88.673 E28.27164
G1 X122.5 Y88.7 E28.30066
G1 X102.5 Y88.7 E29.29846
G1 X101.797 Y88.66 E29.33359
G1 X101.103 Y88.541 E29.36872
G1 X100.428 Y88.343 E29.40381
G1 X99.779 Y88.071 E29.43892
G1 X99.165 Y87.726 E29.47406
G1 X98.594 Y87.315 E29.50916
G1 X98.073 Y86.841 E29.5443
G1 X97.609 Y86.311 E29.57944
G1 X97.209 Y85.732 E29.61455
G1 X96.877 Y85.111 E29.64968
G1 X96.617 Y84.457 E29.68479
G1 X96.433 Y83.777 E29.71994
G1 X96.327 Y83.081 E29.75506
G1 X96.3 Y82.5 E29.78408
G1 X96.3 Y62.5 E30.78188
G1 X96.34 Y61.797 E30.81701
G1 X96.459 Y61.103 E30.85214
G1 X96.657 Y60.428 E30.88724
G1 X96.929 Y59.779 E30.92235
G0 F3600 X97.328 Y59.874
G1 F1800 X97.672 Y59.286 E30.95633
G1 X98.082 Y58.742 E30.99032
G1 X98.553 Y58.251 E31.02426
G1 X99.078 Y57.817 E31.05825
G1 X99.65 Y57.448 E31.09221
G1 X100.262 Y57.149 E31.12619
G1 X100.904 Y56.924 E31.16013
G1 X101.569 Y56.775 E31.19413
G1 X102.5 Y56.7 E31.24072
G1 X122.5 Y56.7 E32.23853
G1 X123.18 Y56.74 E32.27251
G1 X123.85 Y56.859 E32.30646
G1 X124.502 Y57.056 E32.34044
G1 X125.126 Y57.328 E32.3744
G1 X125.714 Y57.672 E32.40839
G1 X126.258 Y58.082 E32.44238
G1 X126.749 Y58.553 E32.47632
G1 X127.183 Y59.078 E32.5103
G1 X127.552 Y59.65 E32.54426
G1 X127.851 Y60.262 E32.57825
G1 X128.076 Y60.904 E32.61218
G1 X128.225 Y61.569 E32.64618
G1 X128.3 Y62.5 E32.69278
G1 X128.3 Y82.5 E33.69059
G1 X128.26 Y83.18 E33.72457
G1 X128.141 Y83.85 E33.75852
G1 X127.944 Y84.502 E33.7925
G1 X127.672 Y85.126 E33.82646
G1 X127.328 Y85.714 E33.86045
G1 X126.918 Y86.258 E33.89443
G1 X126.447 Y86.749 E33.92838
G1 X125.922 Y87.183 E33.96236
G1 X125.35 Y87.552 E33.99632
G1 X124.738 Y87.851 E34.0303
G1 X124.096 Y88.076 E34.06424
G1 X123.431 Y88.225 E34.09824
G1 X122.5 Y88.3 E34.14484
G1 X102.5 Y88.3 E35.14265
G1 X101.82 Y88.26 E35.17663
G1 X101.15 Y88.141 E35.21058
G1 X100.498 Y87.944 E35.24456
G1 X99.874 Y87.672 E35.27852
G1 X99.286 Y87.328 E35.31251
G1 X98.742 Y86.918 E35.34649
G1 X98.251 Y86.447 E35.38044
G1 X97.817 Y85.922 E35.41442
G1 X97.448 Y85.35 E35.44838
G1 X97.149 Y84.738 E35.48236
G1 X96.924 Y84.096 E35.5163
G1 X96.775 Y83.431 E35.5503
G1 X96.7 Y82.5 E35.5969
G1 X96.7 Y62.5 E36.5947
G1 X96.74 Y61.82 E36.62869
G1 X96.859 Y61.15 E36.66264
G1 X97.056 Y60.498 E36.69662
G1 X97.328 Y59.874 E36.73058
G0 F3600 X97.728 Y59.973
G1 F1800 X98.07 Y59.412 E36.76336
G1 X98.478 Y58.897 E36.79614
G1 X98.945 Y58.435 E36.82891
G1 X99.465 Y58.034 E36.86167
G1 X100.029 Y57.698 E36.89442
G1 X100.631 Y57.434 E36.92722
G1 X101.26 Y57.244 E36.96
G1 X101.907 Y57.133 E36.99275
G1 X102.5 Y57.1 E37.02238
G1 X122.5 Y57.1 E38.02019
G1 X123.156 Y57.14 E38.05297
G1 X123.802 Y57.259 E38.08575
G1 X124.429 Y57.456 E38.11853
G1 X125.027 Y57.728 E38.15131
G1 X125.588 Y58.07 E38.18409
G1 X126.103 Y58.478 E38.21687
G1 X126.565 Y58.945 E38.24964
G1 X126.966 Y59.465 E38.2824
G1 X127.302 Y60.029 E38.31516
G1 X127.566 Y60.631 E38.34795
G1 X127.756 Y61.26 E38.38073
G1 X127.867 Y61.907 E38.41348
G1 X127.9 Y62.5 E38.44311
G1 X127.9 Y82.5 E39.44092
G1 X127.86 Y83.156 E39.47371
G1 X127.741 Y83.802 E39.50648
G1 X127.544 Y84.429 E39.53927
G1 X127.272 Y85.027 E39.57204
G1 X126.93 Y85.588 E39.60482
G1 X126.522 Y86.103 E39.6376
G1 X126.055 Y86.565 E39.67037
G1 X125.535 Y86.966 E39.70313
G1 X124.971 Y87.302 E39.73589
G1 X124.369 Y87.566 E39.76868
G1 X123.74 Y87.756 E39.80146
G1 X123.093 Y87.867 E39.83421
G1 X122.5 Y87.9 E39.86385
G1 X102.5 Y87.9 E40.86165
G1 X101.844 Y87.86 E40.89444
G1 X101.198 Y87.741 E40.92721
G1 X100.571 Y87.544 E40.96
G1 X99.973 Y87.272 E40.99277
G1 X99.412 Y86.93 E41.02555
G1 X98.897 Y86.522 E41.05833
G1 X98.435 Y86.055 E41.09111
G1 X98.034 Y85.535 E41.12387
G1 X97.698 Y84.971 E41.15662
G1 X97.434 Y84.369 E41.18941
G1 X97.244 Y83.74 E41.2222
G1 X97.133 Y83.093 E41.25495
G1 X97.1 Y82.5 E41.28458
G1 X97.1 Y62.5 E42.28238
G1 X97.14 Y61.844 E42.31517
G1 X97.259 Y61.198 E42.34794
G1 X97.456 Y60.571 E42.38073
G1 X97.728 Y59.973 E42.41351
G0 F3600 X98.127 Y60.076
G1 F1800 X98.467 Y59.544 E42.445
G1 X98.873 Y59.059 E42.47656
G1 X99.336 Y58.629 E42.50809
G1 X99.85 Y58.26 E42.53965
G1 X100.406 Y57.96 E42.57117
G1 X100.995 Y57.732 E42.60268
G1 X101.609 Y57.58 E42.63424
G1 X102.5 Y57.5 E42.67887
G1 X122.5 Y57.5 E43.67667
G1 X123.131 Y57.54 E43.70822
G1 X123.752 Y57.659 E43.73976
G1 X124.352 Y57.856 E43.77127
G1 X124.924 Y58.127 E43.80285
G1 X125.456 Y58.467 E43.83435
G1 X125.941 Y58.873 E43.8659
G1 X126.371 Y59.336 E43.89743
G1 X126.74 Y59.85 E43.92899
G1 X127.04 Y60.406 E43.96051
G1 X127.268 Y60.995 E43.99202
G1 X127.42 Y61.609 E44.02358
G1 X127.5 Y62.5 E44.06821
G1 X127.5 Y82.5 E45.06602
G1 X127.46 Y83.131 E45.09756
G1 X127.341 Y83.752 E45.12911
G1 X127.144 Y84.352 E45.16061
G1 X126.873 Y84.924 E45.19219
G1 X126.533 Y85.456 E45.22369
G1 X126.127 Y85.941 E45.25524
G1 X125.664 Y86.371 E45.28677
G1 X125.15 Y86.74 E45.31834
G1 X124.594 Y87.04 E45.34986
G1 X124.005 Y87.268 E45.38137
G1 X123.391 Y87.42 E45.41292
G1 X122.5 Y87.5 E45.45755
G1 X102.5 Y87.5 E46.45536
G1 X101.869 Y87.46 E46.4869
G1 X101.248 Y87.341 E46.51845
G1 X100.648 Y87.144 E46.54995
G1 X100.076 Y86.873 E46.58153
G1 X99.544 Y86.533 E46.61303
G1 X99.059 Y86.127 E46.64459
G1 X98.629 Y85.664 E46.67611
G1 X98.26 Y85.15 E46.70768
G1 X97.96 Y84.594 E46.7392
G1 X97.732 Y84.005 E46.77071
G1 X97.58 Y83.391 E46.80227
G1 X97.5 Y82.5 E46.8469
G1 X97.5 Y62.5 E47.8447
G1 X97.54 Y61.869 E47.87624
G1 X97.659 Y61.248 E47.90779
G1 X97.856 Y60.648 E47.9393
G1 X98.127 Y60.076 E47.97087
G0 F3600 X98.526 Y60.184
G1 F1800 X98.865 Y59.681 E48.00114
G1 X99.267 Y59.228 E48.03135
G1 X99.725 Y58.831 E48.06159
G1 X100.232 Y58.498 E48.09185
G1 X100.778 Y58.234 E48.12211
G1 X101.354 Y58.045 E48.15236
G1 X101.95 Y57.933 E48.18261
G1 X102.5 Y57.9 E48.2101
G1 X122.5 Y57.9 E49.2079
G1 X123.105 Y57.94 E49.23815
G1 X123.699 Y58.059 E49.26838
G1 X124.273 Y58.255 E49.29864
G1 X124.816 Y58.526 E49.32891
G1 X125.319 Y58.865 E49.35918
G1 X125.772 Y59.267 E49.38939
G1 X126.169 Y59.725 E49.41963
G1 X126.502 Y60.232 E49.44989
G1 X126.766 Y60.778 E49.48015
G1 X126.955 Y61.354 E49.51039
G1 X127.067 Y61.95 E49.54065
G1 X127.1 Y62.5 E49.56814
G1 X127.1 Y82.5 E50.56594
G1 X127.06 Y83.105 E50.59619
G1 X126.941 Y83.699 E50.62642
G1 X126.745 Y84.273 E50.65668
G1 X126.474 Y84.816 E50.68695
G1 X126.135 Y85.319 E50.71721
G1 X125.733 Y85.772 E50.74743
G1 X125.275 Y86.169 E50.77767
G1 X124.768 Y86.502 E50.80793
G1 X124.222 Y86.766 E50.83819
G1 X123.646 Y86.955 E50.86843
G1 X123.05 Y87.067 E50.89869
G1 X122.5 Y87.1 E50.92618
G1 X102.5 Y87.1 E51.92398
G1 X101.895 Y87.06 E51.95423
G1 X101.301 Y86.941 E51.98445
G1 X100.727 Y86.745 E52.01472
G1 X100.184 Y86.474 E52.04499
G1 X99.681 Y86.135 E52.07525
G1 X99.228 Y85.733 E52.10547
G1 X98.831 Y85.275 E52.13571
G1 X98.498 Y84.768 E52.16597
G1 X98.234 Y84.222 E52.19623
G1 X98.045 Y83.646 E52.22647
G1 X97.933 Y83.05 E52.25673
G1 X97.9 Y82.5 E52.28422
G1 X97.9 Y62.5 E53.28202
G1 X97.94 Y61.895 E53.31227
G1 X98.059 Y61.301 E53.34249
G1 X98.255 Y60.727 E53.37275
G1 X98.526 Y60.184 E53.40303
G0 F3600 X98.924 Y60.297
G1 F1800 X99.261 Y59.826 E53.43192
G1 X99.66 Y59.406 E53.46083
G1 X100.113 Y59.044 E53.48976
G1 X100.611 Y58.749 E53.51863
