;FLAVOR:Marlin
;TIME:3836
;Filament used: 3.87313m
;Layer height: 0.2
;MINX:78.803
;MINY:56.567
;MINZ:0.3
;MAXX:142.282
;MAXY:88.62
;MAXZ:47.9
;Generated with Cura_SteamEngine 4.4.1
M140 S60
M105
M190 S60
M104 S200
M105
M109 S200
M82 ;absolute extrusion mode

G92 E0
G92 E0
G1 F2400 E-4
;LAYER_COUNT:239
;LAYER:0
M107
G0 F3600 X80.785 Y61.731 Z0.3
;TYPE:SKIRT
G1 F2400 E0
G1 F1800 X81.214 Y61.229 E0.03294
G1 X81.533 Y60.886 E0.05631
G1 X82.1 Y60.336 E0.09572
G1 X82.719 Y59.846 E0.13511
G1 X83.252 Y59.498 E0.16687
G1 X83.653 Y59.259 E0.19016
G1 X84.351 Y58.889 E0.22957
G1 X85.082 Y58.592 E0.26894
G1 X85.665 Y58.415 E0.29933
G1 X86.141 Y58.29 E0.32389
G1 X86.914 Y58.128 E0.36329
G1 X87.618 Y58.05 E0.39863
G1 X88.901 Y57.967 E0.46277
G1 X88.929 Y57.966 E0.46417
G1 X110.872 Y56.625 E1.56095
G1 X110.952 Y56.62 E1.56495
G1 X111.7 Y56.582 E1.60231
G1 X112.045 Y56.572 E1.61953
G1 X112.811 Y56.567 E1.65775
G1 X113.217 Y56.575 E1.67801
G1 X113.964 Y56.609 E1.71532
G1 X114.364 Y56.638 E1.73533
G1 X115.094 Y56.709 E1.77192
G1 X115.45 Y56.751 E1.7898
G1 X116.159 Y56.853 E1.82554
G1 X116.539 Y56.918 E1.84477
G1 X117.232 Y57.053 E1.87999
G1 X117.602 Y57.134 E1.89889
G1 X118.302 Y57.306 E1.93485
G1 X118.643 Y57.398 E1.95247
G1 X119.394 Y57.619 E1.99153
G1 X119.807 Y57.754 E2.01321
G1 X120.56 Y58.022 E2.05308
G1 X120.951 Y58.173 E2.07399
G1 X121.674 Y58.475 E2.11309
G1 X122.017 Y58.627 E2.1318
G1 X122.667 Y58.936 E2.16771
G1 X123.035 Y59.124 E2.18833
G1 X123.664 Y59.465 E2.22402
G1 X123.973 Y59.641 E2.24176
G1 X124.587 Y60.011 E2.27753
G1 X124.888 Y60.202 E2.29531
G1 X125.524 Y60.626 E2.33345
G1 X125.852 Y60.857 E2.35346
G1 X126.449 Y61.301 E2.39058
G1 X126.768 Y61.552 E2.41083
G1 X127.343 Y62.028 E2.44807
G1 X127.627 Y62.274 E2.46682
G1 X128.176 Y62.775 E2.5039
G1 X128.455 Y63.044 E2.52323
G1 X128.954 Y63.547 E2.55858
G1 X129.242 Y63.852 E2.57951
G1 X129.804 Y64.483 E2.62167
G1 X130.069 Y64.797 E2.64217
G1 X130.566 Y65.418 E2.68185
G1 X130.815 Y65.748 E2.70247
G1 X131.258 Y66.366 E2.74041
G1 X131.472 Y66.679 E2.75933
G1 X131.873 Y67.3 E2.79621
G1 X132.244 Y67.941 E2.83315
G1 X132.538 Y68.508 E2.86502
G1 X132.866 Y69.226 E2.9044
G1 X133.119 Y69.974 E2.9438
G1 X133.296 Y70.744 E2.98321
G1 X133.367 Y71.24 E3.00821
G1 X133.426 Y71.773 E3.03496
G1 X133.473 Y72.561 E3.07435
G1 X133.44 Y73.35 E3.11375
G1 X133.327 Y74.132 E3.15317
G1 X133.207 Y74.651 E3.17974
G1 X133.096 Y75.065 E3.20113
G1 X132.853 Y75.816 E3.24051
G1 X132.535 Y76.539 E3.27991
G1 X132.279 Y77.01 E3.30666
G1 X131.913 Y77.63 E3.34258
G1 X131.706 Y77.961 E3.36205
G1 X131.312 Y78.558 E3.39774
G1 X131.085 Y78.884 E3.41756
G1 X130.665 Y79.455 E3.45292
G1 X130.421 Y79.769 E3.47276
G1 X129.911 Y80.393 E3.51297
G1 X129.637 Y80.711 E3.53391
G1 X129.133 Y81.264 E3.57124
G1 X128.883 Y81.525 E3.58927
G1 X128.357 Y82.051 E3.62638
G1 X128.057 Y82.336 E3.64702
G1 X127.502 Y82.835 E3.68426
G1 X127.223 Y83.074 E3.70259
G1 X126.648 Y83.544 E3.73964
G1 X126.325 Y83.795 E3.76005
G1 X125.721 Y84.238 E3.79742
G1 X125.415 Y84.451 E3.81602
G1 X124.79 Y84.865 E3.85342
G1 X124.442 Y85.083 E3.87391
G1 X123.836 Y85.44 E3.909
G1 X123.525 Y85.614 E3.92678
G1 X122.888 Y85.951 E3.96273
G1 X122.561 Y86.114 E3.98096
G1 X121.883 Y86.433 E4.01834
G1 X121.501 Y86.6 E4.03914
G1 X120.771 Y86.897 E4.07846
G1 X120.399 Y87.038 E4.09831
G1 X119.716 Y87.276 E4.13439
G1 X119.372 Y87.386 E4.15241
G1 X118.649 Y87.601 E4.19004
G1 X118.279 Y87.702 E4.20918
G1 X117.584 Y87.872 E4.24487
G1 X117.163 Y87.962 E4.26635
G1 X116.344 Y88.115 E4.30792
G1 X115.964 Y88.177 E4.32713
G1 X115.259 Y88.273 E4.36262
G1 X114.885 Y88.315 E4.3814
G1 X114.151 Y88.379 E4.41816
G1 X113.754 Y88.403 E4.438
G1 X113.004 Y88.43 E4.47544
G1 X112.617 Y88.434 E4.49475
G1 X111.879 Y88.424 E4.53157
G1 X111.51 Y88.411 E4.54999
G1 X87.778 Y86.963 E5.73619
G1 X86.72 Y86.825 E5.78942
G1 X86.201 Y86.721 E5.81583
G1 X85.436 Y86.527 E5.8552
G1 X84.694 Y86.256 E5.89461
G1 X84.121 Y85.986 E5.92621
G1 X83.702 Y85.767 E5.9498
G1 X83.021 Y85.366 E5.98923
G1 X82.385 Y84.898 E6.02862
G1 X81.901 Y84.469 E6.06089
G1 X81.566 Y84.146 E6.08411
G1 X81.026 Y83.57 E6.1235
G1 X80.547 Y82.942 E6.1629
G1 X80.234 Y82.447 E6.19212
G1 X79.996 Y82.037 E6.21577
G1 X79.635 Y81.335 E6.25516
G1 X79.346 Y80.6 E6.29456
G1 X79.178 Y80.024 E6.32449
G1 X79.055 Y79.535 E6.34965
G1 X78.901 Y78.76 E6.38907
G1 X78.819 Y77.71 E6.44161
G1 X78.803 Y76.117 E6.52109
G1 X78.803 Y76.034 E6.52523
G1 X78.808 Y67.478 E6.95209
G1 X78.848 Y66.69 E6.99146
G1 X78.945 Y66.029 E7.02479
G1 X79.038 Y65.539 E7.04967
G1 X79.224 Y64.771 E7.08909
G1 X79.487 Y64.027 E7.12846
G1 X79.718 Y63.517 E7.1564
G1 X79.943 Y63.065 E7.18159
G1 X80.331 Y62.377 E7.22099
G1 X80.785 Y61.731 E7.26038
G0 F3600 X81.125 Y61.947
G1 F1800 X81.507 Y61.501 E7.28968
G1 X81.826 Y61.158 E7.31305
G1 X82.379 Y60.623 E7.35144
G1 X82.984 Y60.148 E7.38981
G1 X83.456 Y59.841 E7.4179
G1 X83.857 Y59.602 E7.44119
G1 X84.538 Y59.243 E7.4796
G1 X85.252 Y58.957 E7.51797
G1 X85.766 Y58.802 E7.54476
G1 X86.242 Y58.677 E7.56931
G1 X86.996 Y58.52 E7.60774
G1 X87.644 Y58.449 E7.64026
G1 X88.927 Y58.366 E7.7044
G1 X88.954 Y58.365 E7.70575
G1 X110.897 Y57.024 E8.80253
G1 X110.973 Y57.02 E8.80633
G1 X111.721 Y56.982 E8.84369
G1 X112.048 Y56.972 E8.86002
G1 X112.814 Y56.967 E8.89823
G1 X113.198 Y56.975 E8.91739
G1 X113.945 Y57.009 E8.9547
G1 X114.325 Y57.036 E8.97371
G1 X115.055 Y57.107 E9.0103
G1 X115.393 Y57.147 E9.02728
G1 X116.102 Y57.249 E9.06302
G1 X116.463 Y57.311 E9.08129
G1 X117.156 Y57.446 E9.11651
G1 X117.507 Y57.523 E9.13444
G1 X118.207 Y57.695 E9.1704
G1 X118.53 Y57.782 E9.18709
G1 X119.281 Y58.003 E9.22615
G1 X119.673 Y58.13 E9.24671
G1 X120.426 Y58.398 E9.28658
G1 X120.797 Y58.542 E9.30644
G1 X121.52 Y58.844 E9.34553
G1 X121.845 Y58.989 E9.36328
G1 X122.495 Y59.298 E9.39919
G1 X122.845 Y59.476 E9.41878
G1 X123.474 Y59.817 E9.45447
G1 X123.766 Y59.984 E9.47126
G1 X124.38 Y60.354 E9.50702
G1 X124.666 Y60.535 E9.52391
G1 X125.302 Y60.959 E9.56204
G1 X125.613 Y61.178 E9.58102
G1 X126.21 Y61.622 E9.61814
G1 X126.513 Y61.86 E9.63736
G1 X127.088 Y62.336 E9.6746
G1 X127.357 Y62.57 E9.69239
G1 X127.906 Y63.071 E9.72947
G1 X128.171 Y63.325 E9.74778
G1 X128.67 Y63.828 E9.78313
G1 X128.943 Y64.118 E9.803
G1 X129.505 Y64.749 E9.84516
G1 X129.757 Y65.047 E9.86463
G1 X130.254 Y65.668 E9.90431
G1 X130.49 Y65.981 E9.92387
G1 X130.933 Y66.599 E9.9618
G1 X131.136 Y66.896 E9.97975
G1 X131.537 Y67.517 E10.01663
G1 X131.889 Y68.125 E10.05168
G1 X132.183 Y68.692 E10.08355
G1 X132.501 Y69.392 E10.1219
G1 X132.745 Y70.121 E10.16026
G1 X132.912 Y70.872 E10.19864
G1 X132.969 Y71.284 E10.21939
G1 X133.028 Y71.817 E10.24614
G1 X133.073 Y72.585 E10.28452
G1 X133.038 Y73.353 E10.32288
G1 X132.923 Y74.114 E10.36128
G1 X132.821 Y74.547 E10.38347
G1 X132.71 Y74.961 E10.40486
G1 X132.472 Y75.693 E10.44326
G1 X132.16 Y76.396 E10.48163
G1 X131.934 Y76.807 E10.50503
G1 X131.568 Y77.427 E10.54095
G1 X131.372 Y77.741 E10.55942
G1 X130.978 Y78.338 E10.5951
G1 X130.763 Y78.647 E10.61388
G1 X130.343 Y79.218 E10.64925
G1 X130.112 Y79.516 E10.66806
G1 X129.602 Y80.14 E10.70826
G1 X129.341 Y80.442 E10.72818
G1 X128.837 Y80.995 E10.76551
G1 X128.601 Y81.243 E10.78259
G1 X128.075 Y81.769 E10.8197
G1 X127.79 Y82.039 E10.83928
G1 X127.235 Y82.538 E10.87652
G1 X126.97 Y82.765 E10.89393
G1 X126.395 Y83.235 E10.93098
G1 X126.089 Y83.472 E10.95029
G1 X125.485 Y83.915 E10.98766
G1 X125.195 Y84.117 E11.00529
G1 X124.57 Y84.531 E11.04269
G1 X124.239 Y84.738 E11.06217
G1 X123.633 Y85.095 E11.09726
G1 X123.337 Y85.26 E11.11417
G1 X122.7 Y85.597 E11.15012
G1 X122.39 Y85.752 E11.16741
G1 X121.712 Y86.071 E11.20479
G1 X121.351 Y86.229 E11.22445
G1 X120.621 Y86.526 E11.26377
G1 X120.267 Y86.66 E11.28266
G1 X119.584 Y86.898 E11.31874
G1 X119.258 Y87.003 E11.33583
G1 X118.535 Y87.218 E11.37346
G1 X118.184 Y87.313 E11.3916
G1 X117.489 Y87.483 E11.4273
G1 X117.09 Y87.569 E11.44766
G1 X116.271 Y87.722 E11.48923
G1 X115.91 Y87.78 E11.50747
G1 X115.205 Y87.876 E11.54296
G1 X114.85 Y87.916 E11.56079
G1 X114.116 Y87.98 E11.59755
G1 X113.739 Y88.003 E11.61639
G1 X112.989 Y88.03 E11.65383
G1 X112.623 Y88.034 E11.67209
G1 X111.885 Y88.024 E11.70892
G1 X111.534 Y88.011 E11.72644
G1 X87.802 Y86.563 E12.91263
G1 X86.799 Y86.433 E12.96309
G1 X86.28 Y86.329 E12.9895
G1 X85.535 Y86.139 E13.02786
G1 X84.813 Y85.872 E13.06626
G1 X84.306 Y85.631 E13.09427
G1 X83.887 Y85.412 E13.11786
G1 X83.225 Y85.021 E13.15622
G1 X82.607 Y84.563 E13.19459
G1 X82.179 Y84.181 E13.22321
G1 X81.844 Y83.858 E13.24643
G1 X81.318 Y83.296 E13.28483
G1 X80.854 Y82.683 E13.32319
G1 X80.58 Y82.246 E13.34892
G1 X80.342 Y81.836 E13.37257
G1 X79.991 Y81.152 E13.41093
G1 X79.713 Y80.435 E13.44929
G1 X79.566 Y79.926 E13.47573
G1 X79.443 Y79.437 E13.50088
G1 X79.294 Y78.682 E13.53928
G1 X79.219 Y77.706 E13.58811
G1 X79.203 Y76.113 E13.66759
G1 X79.203 Y76.035 E13.67148
G1 X79.208 Y67.479 E14.09834
G1 X79.248 Y66.711 E14.13671
G1 X79.338 Y66.103 E14.16738
G1 X79.431 Y65.613 E14.19226
G1 X79.613 Y64.866 E14.23062
G1 X79.872 Y64.142 E14.26898
G1 X80.076 Y63.695 E14.29349
G1 X80.301 Y63.243 E14.31868
G1 X80.679 Y62.574 E14.35702
G1 X81.125 Y61.947 E14.39541
G0 F3600 X81.464 Y62.163
G1 F1800 X81.8 Y61.774 E14.42105
G1 X82.119 Y61.431 E14.44442
G1 X82.657 Y60.911 E14.48175
G1 X83.248 Y60.452 E14.51908
G1 X83.661 Y60.185 E14.54362
G1 X84.062 Y59.946 E14.56691
G1 X84.724 Y59.598 E14.60422
G1 X85.42 Y59.322 E14.64157
G1 X85.868 Y59.189 E14.66489
G1 X86.344 Y59.064 E14.68944
G1 X87.077 Y58.912 E14.72679
G1 X87.67 Y58.849 E14.75654
G1 X88.953 Y58.766 E14.82068
G1 X88.978 Y58.764 E14.82193
G1 X110.921 Y57.423 E15.91872
G1 X110.993 Y57.419 E15.92232
G1 X111.741 Y57.381 E15.95968
G1 X112.05 Y57.372 E15.9751
G1 X112.816 Y57.367 E16.01332
G1 X113.18 Y57.374 E16.03148
G1 X113.927 Y57.408 E16.06879
G1 X114.287 Y57.434 E16.0868
G1 X115.017 Y57.505 E16.12339
G1 X115.336 Y57.543 E16.13942
G1 X116.045 Y57.645 E16.17515
G1 X116.386 Y57.703 E16.19241
G1 X117.079 Y57.838 E16.22763
G1 X117.411 Y57.911 E16.24459
G1 X118.111 Y58.083 E16.28056
G1 X118.417 Y58.166 E16.29637
G1 X119.168 Y58.387 E16.33543
G1 X119.539 Y58.507 E16.35488
G1 X120.292 Y58.775 E16.39476
G1 X120.643 Y58.911 E16.41354
G1 X121.366 Y59.213 E16.45263
G1 X121.673 Y59.35 E16.4694
G1 X122.323 Y59.659 E16.50531
G1 X122.654 Y59.827 E16.52383
G1 X123.283 Y60.168 E16.55952
G1 X123.56 Y60.326 E16.57543
G1 X124.174 Y60.696 E16.6112
G1 X124.444 Y60.868 E16.62717
G1 X125.08 Y61.292 E16.6653
G1 X125.374 Y61.499 E16.68324
G1 X125.971 Y61.943 E16.72036
G1 X126.258 Y62.168 E16.73855
G1 X126.833 Y62.644 E16.7758
G1 X127.088 Y62.865 E16.79263
G1 X127.637 Y63.366 E16.82971
G1 X127.887 Y63.607 E16.84704
G1 X128.386 Y64.11 E16.88238
G1 X128.644 Y64.384 E16.90116
G1 X129.206 Y65.015 E16.94332
G1 X129.444 Y65.297 E16.96173
G1 X129.941 Y65.918 E17.00141
G1 X130.165 Y66.214 E17.01993
G1 X130.608 Y66.832 E17.05786
G1 X130.8 Y67.113 E17.07484
G1 X131.201 Y67.734 E17.11172
G1 X131.534 Y68.309 E17.14487
G1 X131.828 Y68.876 E17.17674
G1 X132.137 Y69.557 E17.21405
G1 X132.371 Y70.268 E17.25139
G1 X132.572 Y71.328 E17.30522
G1 X132.631 Y71.861 E17.33197
G1 X132.673 Y72.608 E17.3693
G1 X132.635 Y73.355 E17.40661
G1 X132.434 Y74.444 E17.46186
G1 X132.323 Y74.858 E17.48324
G1 X132.091 Y75.569 E17.52056
G1 X131.785 Y76.251 E17.55785
G1 X131.59 Y76.603 E17.57793
G1 X131.224 Y77.223 E17.61385
G1 X131.038 Y77.521 E17.63137
G1 X130.644 Y78.118 E17.66706
G1 X130.441 Y78.41 E17.6848
G1 X130.021 Y78.981 E17.72016
G1 X129.802 Y79.263 E17.73798
G1 X129.292 Y79.887 E17.77818
G1 X129.046 Y80.172 E17.79697
G1 X128.542 Y80.725 E17.8343
G1 X128.318 Y80.96 E17.85049
G1 X127.792 Y81.486 E17.8876
G1 X127.522 Y81.741 E17.90613
G1 X126.967 Y82.24 E17.94337
G1 X126.717 Y82.455 E17.95982
G1 X126.142 Y82.925 E17.99687
G1 X125.852 Y83.15 E18.01518
G1 X125.248 Y83.593 E18.05255
G1 X124.974 Y83.784 E18.06921
G1 X124.349 Y84.198 E18.10662
G1 X124.036 Y84.393 E18.12501
G1 X123.43 Y84.75 E18.1601
G1 X123.15 Y84.906 E18.1761
G1 X122.513 Y85.243 E18.21205
G1 X122.22 Y85.39 E18.2284
G1 X121.542 Y85.709 E18.26579
G1 X121.2 Y85.859 E18.28442
G1 X120.47 Y86.156 E18.32374
G1 X120.135 Y86.282 E18.34159
G1 X119.452 Y86.52 E18.37768
G1 X119.144 Y86.62 E18.39383
G1 X118.421 Y86.835 E18.43146
G1 X118.089 Y86.925 E18.44863
G1 X117.394 Y87.095 E18.48432
G1 X117.016 Y87.176 E18.50361
G1 X116.197 Y87.329 E18.54518
G1 X115.856 Y87.384 E18.56241
G1 X115.151 Y87.48 E18.5979
G1 X114.815 Y87.518 E18.61477
G1 X114.081 Y87.582 E18.65153
G1 X113.725 Y87.603 E18.66932
G1 X112.975 Y87.63 E18.70677
G1 X112.628 Y87.634 E18.72408
G1 X111.89 Y87.624 E18.7609
G1 X111.559 Y87.612 E18.77743
G1 X87.827 Y86.164 E19.96362
G1 X86.878 Y86.041 E20.01136
G1 X86.359 Y85.937 E20.03777
G1 X85.634 Y85.751 E20.07511
G1 X84.933 Y85.488 E20.11247
G1 X84.491 Y85.277 E20.1369
G1 X84.072 Y85.058 E20.16049
G1 X83.429 Y84.676 E20.1978
G1 X82.83 Y84.228 E20.23512
G1 X82.456 Y83.893 E20.26017
G1 X82.121 Y83.57 E20.28339
G1 X81.611 Y83.023 E20.3207
G1 X81.163 Y82.424 E20.35802
G1 X80.926 Y82.045 E20.38032
G1 X80.688 Y81.635 E20.40397
G1 X80.348 Y80.969 E20.44128
G1 X80.08 Y80.271 E20.47858
G1 X79.953 Y79.829 E20.50152
G1 X79.83 Y79.34 E20.52668
G1 X79.687 Y78.605 E20.56403
G1 X79.619 Y77.702 E20.60921
G1 X79.603 Y76.109 E20.68869
G1 X79.603 Y76.035 E20.69238
G1 X79.608 Y67.479 E21.11924
G1 X79.648 Y66.732 E21.15657
G1 X79.731 Y66.178 E21.18451
G1 X79.824 Y65.688 E21.2094
G1 X80.002 Y64.961 E21.24674
G1 X80.257 Y64.258 E21.28405
G1 X80.434 Y63.874 E21.30514
G1 X80.659 Y63.422 E21.33033
G1 X81.028 Y62.771 E21.36766
G1 X81.464 Y62.163 E21.40499
G0 F3600 X81.803 Y62.38
G1 F1800 X82.093 Y62.046 E21.42706
G1 X82.412 Y61.703 E21.45043
G1 X82.935 Y61.199 E21.48666
G1 X83.511 Y60.756 E21.52292
G1 X83.866 Y60.529 E21.54394
G1 X84.267 Y60.29 E21.56723
G1 X84.91 Y59.953 E21.60345
G1 X85.587 Y59.688 E21.63972
G1 X85.97 Y59.575 E21.65964
G1 X86.446 Y59.45 E21.68419
G1 X87.157 Y59.305 E21.7204
G1 X87.696 Y59.248 E21.74744
G1 X88.979 Y59.165 E21.81158
G1 X89.002 Y59.163 E21.81273
G1 X110.945 Y57.822 E22.90951
G1 X111.013 Y57.819 E22.91291
G1 X111.761 Y57.781 E22.95028
G1 X112.053 Y57.772 E22.96485
G1 X112.819 Y57.767 E23.00307
G1 X113.162 Y57.774 E23.02018
G1 X113.909 Y57.808 E23.05749
G1 X114.248 Y57.832 E23.07445
G1 X114.978 Y57.903 E23.11104
G1 X115.279 Y57.939 E23.12616
G1 X115.988 Y58.041 E23.1619
G1 X116.31 Y58.096 E23.17819
G1 X117.003 Y58.231 E23.21342
G1 X117.316 Y58.3 E23.22941
G1 X118.016 Y58.472 E23.26537
G1 X118.304 Y58.549 E23.28024
G1 X119.055 Y58.77 E23.3193
G1 X119.405 Y58.884 E23.33766
G1 X120.158 Y59.152 E23.37754
G1 X120.489 Y59.28 E23.39525
G1 X121.212 Y59.582 E23.43434
G1 X121.502 Y59.711 E23.45017
G1 X122.152 Y60.02 E23.48608
G1 X122.464 Y60.179 E23.50355
G1 X123.093 Y60.52 E23.53924
G1 X123.353 Y60.669 E23.5542
G1 X123.967 Y61.039 E23.58996
G1 X124.222 Y61.2 E23.60501
G1 X124.858 Y61.624 E23.64314
G1 X125.136 Y61.82 E23.66011
G1 X125.733 Y62.264 E23.69723
G1 X126.003 Y62.476 E23.71436
G1 X126.578 Y62.952 E23.7516
G1 X126.818 Y63.161 E23.76747
G1 X127.367 Y63.662 E23.80455
G1 X127.603 Y63.889 E23.82089
G1 X128.102 Y64.392 E23.85624
G1 X128.346 Y64.65 E23.87396
G1 X128.908 Y65.281 E23.91611
G1 X129.132 Y65.547 E23.93346
G1 X129.629 Y66.168 E23.97314
G1 X129.84 Y66.447 E23.9906
G1 X130.283 Y67.065 E24.02853
G1 X130.464 Y67.33 E24.04454
G1 X130.865 Y67.951 E24.08142
G1 X131.179 Y68.493 E24.11267
G1 X131.473 Y69.06 E24.14454
G1 X131.772 Y69.722 E24.18078
G1 X131.995 Y70.413 E24.217
G1 X132.174 Y71.372 E24.26567
G1 X132.233 Y71.905 E24.29243
G1 X132.273 Y72.63 E24.32865
G1 X132.233 Y73.355 E24.36488
G1 X132.048 Y74.34 E24.41488
G1 X131.937 Y74.754 E24.43626
G1 X131.71 Y75.444 E24.4725
G1 X131.246 Y76.4 E24.52552
G1 X130.88 Y77.02 E24.56144
G1 X130.705 Y77.3 E24.57791
G1 X130.311 Y77.897 E24.6136
G1 X130.119 Y78.173 E24.63037
G1 X129.699 Y78.744 E24.66573
G1 X129.492 Y79.01 E24.68255
G1 X128.982 Y79.634 E24.72276
G1 X128.75 Y79.903 E24.74048
G1 X128.246 Y80.456 E24.77781
G1 X128.035 Y80.677 E24.79305
G1 X127.509 Y81.203 E24.83016
G1 X127.255 Y81.444 E24.84763
G1 X126.7 Y81.943 E24.88487
